!!!!SEGMENT: pl-cz--iii-204--004_engel-jan--offertorium-4.krn
!!!cenid: 17xx:194
!!!COM: Engel, Jan
!!!COM-rismid: pe30009138
!!!CDT: <1772->1788
!!!CNT:
!!!OTL: Offertorium - 4
!!!PDT:
!!!AGN: Sacred
!!!SMS-siglum: PL-CZ
!!!SMS-shelfmark: III-204
!!!SMS-shelfwork: 004 W
!!!NIFC-rismid:
!!!URL-scan: http://repozytorium.nifc.pl/skany/pl-cz-nut--iii-204
!!!ONB-nifc: UWAGA: części Offertorium: I, II, III, IV
**kern	**dynam	**kern	**dynam	**kern	**dynam	**kern	**text	**dynam	**kern	**text	**dynam	**kern	**text	**dynam	**kern	**text	**dynam	**kern	**kern	**dynam
*part9	*	*part4	*	*part3	*	*part8	*part8	*	*part7	*part7	*part7	*part6	*part6	*part6	*part5	*part5	*part5	*part2	*part1	*
*group3	*	*group3	*	*group3	*	*group2	*	*	*group2	*	*	*group2	*	*	*group2	*	*	*group1	*group1	*
*staff9	*	*staff4	*	*staff3	*	*staff8	*staff8	*	*staff7	*staff7	*	*staff6	*staff6	*	*staff5	*staff5	*	*staff2	*staff1	*
*I"Baſso.	*	*I"Violino Secondo	*	*I"Violino Primo.	*	*I"Baſso.	*	*	*I"Tenore	*	*	*I"Alto	*	*	*I"Canto.	*	*	*I"Cornu IIdo in D.	*I"Cornu Primo in D.	*
*I'Bc	*	*I'Vn II	*	*I'Vn I	*	*I'B	*	*	*I'T	*	*	*I'A	*	*	*I'C	*	*	*I'Cor II	*I'Cor I	*
*clefF4	*	*clefG2	*	*clefG2	*	*clefF4	*	*	*clefC4	*	*	*clefC3	*	*	*clefC1	*	*	*clefG2	*clefG2	*
*	*	*	*	*	*	*ITrd0c0	*	*	*ITrd0c0	*	*	*	*	*	*	*	*	*ITrd-1c-2	*ITrd-1c-2	*
*k[f#c#]	*	*k[f#c#]	*	*k[f#c#]	*	*k[f#c#]	*	*	*k[f#c#]	*	*	*k[f#c#]	*	*	*k[c#f#]	*	*	*k[f#c#]	*k[f#c#]	*
*D:	*	*D:	*	*D:	*	*D:	*	*	*D:	*	*	*D:	*	*	*D:	*	*	*	*	*
*M3/4	*	*M3/4	*	*M3/4	*	*M3/4	*	*	*M3/4	*	*	*M3/4	*	*	*M3/4	*	*	*M3/4	*M3/4	*
=1	=1	=1	=1	=1	=1	=1	=1	=1	=1	=1	=1	=1	=1	=1	=1	=1	=1	=1	=1	=1
!	!	!	!	!	!	!LO:N:vis=00	!	!	!LO:N:vis=00	!	!	!	!	!	!	!	!	!	!	!
!	!	!	!	!	!	!	!	!	!LO:TX:a:t=P:problem:kolejność znaków c# F#	!	!	!LO:N:vis=00	!	!	!LO:TX:a:t=P:problem:kolejność znaków cc# f#	!	!	!	!	!
!LO:TX:a:t=allegretto	!	!LO:TX:a:t=allegretto	!	!LO:TX:a:t=allegretto	!	!LO:TX:a:t=allegro	!	!	!LO:TX:a:t=allegretto	!	!	!LO:TX:a:t=allegretto	!	!	!LO:TX:a:t=allegro	!	!	!LO:TX:a:t=allegro in D&colon;	!LO:TX:a:t=allegro	!
8D\L	.	8d'/L	.	8d'/L	.	0.r	.	.	0.r	.	.	0.r	.	.	2.r	.	.	8d/L	8d/L	.
*	*below	*	*	*	*	*	*	*	*	*	*	*	*	*	*	*	*	*	*	*
!	!LO:DY:t=for	!	!	!	!	!	!	!	!	!	!	!	!	!	!	!	!	!	!	!
(16F#\L	f	(16f#/L	.	(16f#/L	.	.	.	.	.	.	.	.	.	.	.	.	.	16f#/L	16f#/L	.
16D\JJ)	.	16d/JJ)	.	16d/JJ)	.	.	.	.	.	.	.	.	.	.	.	.	.	16d/JJ	16d/JJ	.
8A'\L	.	8a'/L	.	8a'/L	.	.	.	.	.	.	.	.	.	.	.	.	.	8a/L	8a/L	.
8A'\	.	8a'/	.	8a'/	.	.	.	.	.	.	.	.	.	.	.	.	.	8a/	8a/	.
8A'\	.	8a'/	.	8a'/	.	.	.	.	.	.	.	.	.	.	.	.	.	8a/	8a/	.
8A'\J	.	8a'/J	.	8a'/J	.	.	.	.	.	.	.	.	.	.	.	.	.	8a/J	8a/J	.
=2	=2	=2	=2	=2	=2	=2	=2	=2	=2	=2	=2	=2	=2	=2	=2	=2	=2	=2	=2	=2
*tremolo	*	*	*	*	*below	*	*	*	*	*	*	*	*	*	*	*	*	*	*	*
*2\right	*	*	*	*	*	*	*	*	*	*	*	*	*	*	*	*	*	*	*	*
!	!LO:DY:t=po&colon;	!	!	!	!	!	!	!	!	!	!	!	!	!	!	!	!	!	!	!
8A\L	p	(4a/	.	(4a/	p	.	.	.	.	.	.	.	.	.	4r	.	.	4a/	4a/	.
8A\	.	.	.	.	.	.	.	.	.	.	.	.	.	.	.	.	.	.	.	.
8A\	.	4f#/	p	4dd\	.	.	.	.	.	.	.	.	.	.	4dd\	in	.	4r	4r	.
8A\	.	.	.	.	.	.	.	.	.	.	.	.	.	.	.	.	.	.	.	.
8A\	.	4dd\)	.	4ff#\)	.	.	.	.	.	.	.	.	.	.	4ff#\	hač	.	4r	4r	.
8A\J	.	.	.	.	.	.	.	.	.	.	.	.	.	.	.	.	.	.	.	.
=3	=3	=3	=3	=3	=3	=3	=3	=3	=3	=3	=3	=3	=3	=3	=3	=3	=3	=3	=3	=3
!	!	!LO:TX:a:Bi:t=t	!	!LO:TX:a:Bi:t=t	!	!	!	!	!	!	!	!	!	!	!	!	!	!	!	!
.	.	.	.	8qqgg/	.	.	.	.	.	.	.	.	.	.	.	.	.	.	.	.
!	!	!	!	!	!	!	!	!	!	!	!	!	!	!	!	!	!	!LO:N:vis=1	!LO:N:vis=1	!
8A\L	.	8.dd\L	.	8.ff#\L	.	.	.	.	.	.	.	.	.	.	4ff#\	Men-	.	2.r	2.r	.
8A\	.	.	.	.	.	.	.	.	.	.	.	.	.	.	.	.	.	.	.	.
.	.	32cc#\LL	.	(32ee\LL	.	.	.	.	.	.	.	.	.	.	.	.	.	.	.	.
.	.	32dd\JJJ	.	32ff#\JJJ)	.	.	.	.	.	.	.	.	.	.	.	.	.	.	.	.
!	!	!LO:TX:a:t=P:problem:mixed beam	!	!	!	!	!	!	!	!	!	!	!	!	!LO:TX:a:t=P:problem:przesunięte łuki	!	!	!	!	!
8A\	.	(8ee\L	.	(8gg\L	.	.	.	.	.	.	.	.	.	.	(8gg\L	.	.	.	.	.
8A\	.	8g/	.	8ee\)	.	.	.	.	.	.	.	.	.	.	8ee\J)	.	.	.	.	.
8A\	.	8f#/	.	(8dd\	.	.	.	.	.	.	.	.	.	.	(8dd\L	.	.	.	.	.
8A\J	.	8e/J)	.	8cc#\J)	.	.	.	.	.	.	.	.	.	.	8cc#\J)	.	.	.	.	.
=4	=4	=4	=4	=4	=4	=4	=4	=4	=4	=4	=4	=4	=4	=4	=4	=4	=4	=4	=4	=4
!	!	!	!	!	!LO:DY:rj	!	!	!	!	!	!	!	!	!	!	!	!	!	!	!
8D\L	.	8d/L	f	8d/L	f	.	.	.	.	.	.	.	.	.	4dd\	-sa	.	8d/L	8d/L	.
!	!LO:DY:t=for	!	!	!	!	!	!	!	!	!	!	!	!	!	!	!	!	!	!	!
16F#'\L	f	16f#/L	.	16f#/L	.	.	.	.	.	.	.	.	.	.	.	.	.	16f#/L	16f#/L	.
16D'\JJ	.	16d/JJ	.	16d/JJ	.	.	.	.	.	.	.	.	.	.	.	.	.	16d/JJ	16d/JJ	.
8A\L	.	8a'/L	.	8a'/L	.	.	.	.	.	.	.	.	.	.	4r	.	.	8a/L	8a/L	.
8A\	.	8a'/	.	8a'/	.	.	.	.	.	.	.	.	.	.	.	.	.	8a/	8a/	.
8A\	.	8a'/	.	8a'/	.	.	.	.	.	.	.	.	.	.	4r	.	.	8a/	8a/	.
8A\J	.	8a'/J	.	8a'/J	.	.	.	.	.	.	.	.	.	.	.	.	.	8a/J	8a/J	.
=5	=5	=5	=5	=5	=5	=5	=5	=5	=5	=5	=5	=5	=5	=5	=5	=5	=5	=5	=5	=5
!	!LO:DY:t=po	!	!	!	!	!LO:N:vis=0	!	!	!	!	!	!LO:N:vis=0	!	!	!	!	!	!	!	!
8A\L	p	(4a\	.	(4a\	.	1.r	.	.	4r	.	.	1.r	.	.	4r	.	.	4a/	4a/	.
8A\	.	.	.	.	.	.	.	.	.	.	.	.	.	.	.	.	.	.	.	.
8A\	.	4dd\	p	4ff#\	p	.	.	.	4d\	No-	.	.	.	.	4ff#\	no-	.	4r	4r	.
8A\	.	.	.	.	.	.	.	.	.	.	.	.	.	.	.	.	.	.	.	.
8A\	.	4ff#\)	.	4aa\)	.	.	.	.	4f#\	-vi	.	.	.	.	4aa\	-vi	.	4r	4r	.
8A\J	.	.	.	.	.	.	.	.	.	.	.	.	.	.	.	.	.	.	.	.
=6	=6	=6	=6	=6	=6	=6	=6	=6	=6	=6	=6	=6	=6	=6	=6	=6	=6	=6	=6	=6
!	!	!LO:LB:g=original	!	!LO:LB:g=original	!	!	!	!	!	!	!	!	!	!	!	!	!	!	!	!
!	!	!LO:TX:a:Bi:t=t	!	!LO:TX:a:Bi:t=t	!	!	!	!	!	!	!	!	!	!	!	!	!	!	!	!
8A\L	.	8.ff#\L	.	8.aa\L	.	.	.	.	4f#\	Re-	.	.	.	.	4aa\	Re-	.	2.r	2.r	.
8A\	.	.	.	.	.	.	.	.	.	.	.	.	.	.	.	.	.	.	.	.
.	.	32ee\LL	.	(32gg\LL	.	.	.	.	.	.	.	.	.	.	.	.	.	.	.	.
.	.	32ff#\JJJ	.	32aa\JJJ)	.	.	.	.	.	.	.	.	.	.	.	.	.	.	.	.
8A\	.	8gg\L	.	(8bb\L	.	.	.	.	(8g\L	.	.	.	.	.	(8bb\L	.	.	.	.	.
8A\	.	(8ee\	.	8gg\)	.	.	.	.	8e\J)	.	.	.	.	.	8gg\J)	.	.	.	.	.
8A\	.	8dd\	.	(8ff#\	.	.	.	.	(8d\L	.	.	.	.	.	(8ff#\L	.	.	.	.	.
8A\J	.	8cc#\J)	.	8ee\J)	.	.	.	.	8c#\J)	.	.	.	.	.	8ee\J)	.	.	.	.	.
=7	=7	=7	=7	=7	=7	=7	=7	=7	=7	=7	=7	=7	=7	=7	=7	=7	=7	=7	=7	=7
!	!	!	!	!	!	!	!	!	!	!	!	!	!	!	!LO:LB:g=original	!	!	!	!	!
8D\L	.	4dd 4f#\	.	(8dd\L	.	2.r	.	.	4d\	-gis	.	2.r	.	.	4ff#\	-gis	.	4dd\	4f#/	.
16F#\L	.	.	.	16ff#\L	.	.	.	.	.	.	.	.	.	.	.	.	.	.	.	.
!	!LO:DY:t=for	!	!	!	!LO:DY:t=for..	!	!	!	!	!	!	!	!	!	!	!	!	!	!	!
16D\JJ	f	.	.	16dd\JJ)	f	.	.	.	.	.	.	.	.	.	.	.	.	.	.	.
4A\	.	4ee 4a\	.	8aa\L	.	.	.	.	4r	.	.	.	.	.	4r	.	.	4ee\	4a/	.
.	.	.	.	8aa\	.	.	.	.	.	.	.	.	.	.	.	.	.	.	.	.
8r	.	8r	.	8aa\	.	.	.	.	4r	.	.	.	.	.	4r	.	.	4r	4r	.
8d\	.	8ff#\	.	8aa\J	.	.	.	.	.	.	.	.	.	.	.	.	.	.	.	.
=8	=8	=8	=8	=8	=8	=8	=8	=8	=8	=8	=8	=8	=8	=8	=8	=8	=8	=8	=8	=8
!LO:LB:g=original	!	!	!	!	!	!	!	!	!	!	!	!	!	!	!	!	!	!LO:LB:g=original	!	!
*	*	*	*	*tremolo	*	*	*	*	*	*	*	*2\right	*	*	*2\right	*	*	*2\right	*2\right	*
*	*	*	*	*2\right	*	*2\right	*	*	*2\right	*	*	*	*	*	*	*	*	*	*	*
8c#'\L	.	16ee\LL	.	8aa\L	.	2A\	No-	.	2c#\	no-	.	2a\	No-	.	[2ee\	no-	.	2.ee\	2.ee\	.
.	.	16ee\	.	.	.	.	.	.	.	.	.	.	.	.	.	.	.	.	.	.
8B'\	.	16dd\	.	8aa\	.	.	.	.	.	.	.	.	.	.	.	.	.	.	.	.
.	.	16dd\JJ	.	.	.	.	.	.	.	.	.	.	.	.	.	.	.	.	.	.
8A'\	.	16cc#\LL	.	8aa\	.	.	.	.	.	.	.	.	.	.	.	.	.	.	.	.
.	.	16cc#\	.	.	.	.	.	.	.	.	.	.	.	.	.	.	.	.	.	.
8G'\	.	16b\	.	8aa\	.	.	.	.	.	.	.	.	.	.	.	.	.	.	.	.
.	.	16b\JJ	.	.	.	.	.	.	.	.	.	.	.	.	.	.	.	.	.	.
8F#'\	.	16a\LL	.	8aa\	.	4A\	-vum	.	4c#\	-vum	.	4a\	-vum	.	4ee\]	-vum	.	.	.	.
.	.	16a\	.	.	.	.	.	.	.	.	.	.	.	.	.	.	.	.	.	.
8E'\J	.	16g\	.	8aa\J	.	.	.	.	.	.	.	.	.	.	.	.	.	.	.	.
.	.	16g\JJ	.	.	.	.	.	.	.	.	.	.	.	.	.	.	.	.	.	.
*	*	*	*	*Xtremolo	*	*	*	*	*	*	*	*	*	*	*	*	*	*	*	*
=9	=9	=9	=9	=9	=9	=9	=9	=9	=9	=9	=9	=9	=9	=9	=9	=9	=9	=9	=9	=9
8D\L	.	4dd 4f#\	.	(16aa\LL	.	4d\	Paš-	.	4d\	Paš-	.	4a\	Paš-	.	4ff#\	Paš-	.	4ff#\	4dd\	.
.	.	.	.	16bb\	.	.	.	.	.	.	.	.	.	.	.	.	.	.	.	.
16F#\L	.	.	.	16ccc#\	.	.	.	.	.	.	.	.	.	.	.	.	.	.	.	.
16D\JJ	.	.	.	16ddd\JJ)	.	.	.	.	.	.	.	.	.	.	.	.	.	.	.	.
4A\	.	4ee 4a\	.	8aa'\L	.	4A\	-ca	.	4c#\	-ca	.	4a\	-ca	.	4ee\	-cà	.	4ee\	4a/	.
.	.	.	.	8aa'\	.	.	.	.	.	.	.	.	.	.	.	.	.	.	.	.
8r	.	8r	.	8aa'\	.	4r	.	.	4r	.	.	4r	.	.	4r	.	.	4r	4r	.
8d\	.	8ff#\	.	8aa'\J	.	.	.	.	.	.	.	.	.	.	.	.	.	.	.	.
=10	=10	=10	=10	=10	=10	=10	=10	=10	=10	=10	=10	=10	=10	=10	=10	=10	=10	=10	=10	=10
!	!	!	!	!	!	!	!	!	!LO:LB:g=original	!	!	!	!	!	!	!	!	!	!LO:LB:g=original	!
*	*	*	*	*tremolo	*	*	*	*	*	*	*	*	*	*	*	*	*	*	*	*
8c#'\L	.	16ee\LL	.	8aa\L	.	2A\	no-	.	2c#\	no-	.	2a\	no-	.	2ee\	no-	.	2.ee\	2.a/	.
.	.	16ee\	.	.	.	.	.	.	.	.	.	.	.	.	.	.	.	.	.	.
8B'\	.	16dd\	.	8aa\	.	.	.	.	.	.	.	.	.	.	.	.	.	.	.	.
.	.	16dd\JJ	.	.	.	.	.	.	.	.	.	.	.	.	.	.	.	.	.	.
8A'\	.	16cc#\LL	.	8aa\	.	.	.	.	.	.	.	.	.	.	.	.	.	.	.	.
.	.	16cc#\	.	.	.	.	.	.	.	.	.	.	.	.	.	.	.	.	.	.
8G'\	.	16b\	.	8aa\	.	.	.	.	.	.	.	.	.	.	.	.	.	.	.	.
.	.	16b\JJ	.	.	.	.	.	.	.	.	.	.	.	.	.	.	.	.	.	.
8F#'\	.	16a\LL	.	8aa\	.	4A\	-vae	.	4c#\	-vae	.	4a\	-vae	.	4ee\	-vae	.	.	.	.
.	.	16a\	.	.	.	.	.	.	.	.	.	.	.	.	.	.	.	.	.	.
8E'\J	.	16g\	.	8aa\J	.	.	.	.	.	.	.	.	.	.	.	.	.	.	.	.
.	.	16g\JJ	.	.	.	.	.	.	.	.	.	.	.	.	.	.	.	.	.	.
=11	=11	=11	=11	=11	=11	=11	=11	=11	=11	=11	=11	=11	=11	=11	=11	=11	=11	=11	=11	=11
!	!	!LO:LB:g=original	!	!	!	!	!	!	!	!	!	!	!	!	!	!	!	!	!	!
8D\L	.	16f#/LL	.	16aa\LL	.	4d\	Le-	.	2d\	Le-	.	2a\	Le-	.	2ff#\	Le-	.	2.dd\	2.d/	.
.	.	16f#/	.	16aa\	.	.	.	.	.	.	.	.	.	.	.	.	.	.	.	.
8D\	.	16a/	.	16aa\	.	.	.	.	.	.	.	.	.	.	.	.	.	.	.	.
.	.	16a/JJ	.	16aa\JJ	.	.	.	.	.	.	.	.	.	.	.	.	.	.	.	.
*	*	*rep	*	*	*	*	*	*	*	*	*	*	*	*	*	*	*	*	*	*
8D\	.	16f#/LL	.	16dd\LL	.	4A\	-gis	.	.	.	.	.	.	.	.	.	.	.	.	.
.	.	16f#/	.	16dd\	.	.	.	.	.	.	.	.	.	.	.	.	.	.	.	.
8D\	.	16a/	.	16dd\	.	.	.	.	.	.	.	.	.	.	.	.	.	.	.	.
.	.	16a/JJ	.	16dd\JJ	.	.	.	.	.	.	.	.	.	.	.	.	.	.	.	.
*	*	*Xrep	*	*	*	*	*	*	*	*	*	*	*	*	*	*	*	*	*	*
*	*	*rep	*	*	*	*	*	*	*	*	*	*	*	*	*	*	*	*	*	*
8D\	.	16f#/LL	.	16cccn\LL	.	4r	.	.	4d\	-gis	.	4a\	-gis	.	4ff#\	-gis	.	.	.	.
.	.	16f#/	.	16cccn\	.	.	.	.	.	.	.	.	.	.	.	.	.	.	.	.
8D\J	.	16a/	.	16cccn\	.	.	.	.	.	.	.	.	.	.	.	.	.	.	.	.
.	.	16a/JJ	.	16cccn\JJ	.	.	.	.	.	.	.	.	.	.	.	.	.	.	.	.
*	*	*Xrep	*	*	*	*	*	*	*	*	*	*	*	*	*	*	*	*	*	*
=12	=12	=12	=12	=12	=12	=12	=12	=12	=12	=12	=12	=12	=12	=12	=12	=12	=12	=12	=12	=12
!	!	!	!	!	!	!LO:LB:g=original	!	!	!	!	!	!	!	!	!	!	!	!	!	!
8D\L	.	16g/LL	.	16bb\LL	.	2G\	Pha-	.	2d\	Pha-	.	2b\	Pha-	.	2gg\	Pha-	.	2.dd\	2.d/	.
.	.	16g/	.	16bb\	.	.	.	.	.	.	.	.	.	.	.	.	.	.	.	.
8D\	.	16b/	.	16bb\	.	.	.	.	.	.	.	.	.	.	.	.	.	.	.	.
.	.	16b/JJ	.	16bb\JJ	.	.	.	.	.	.	.	.	.	.	.	.	.	.	.	.
8D\	.	16g/LL	.	16dd\LL	.	.	.	.	.	.	.	.	.	.	.	.	.	.	.	.
.	.	16g/	.	16dd\	.	.	.	.	.	.	.	.	.	.	.	.	.	.	.	.
8D\	.	16b/	.	16dd\	.	.	.	.	.	.	.	.	.	.	.	.	.	.	.	.
.	.	16b/JJ	.	16dd\JJ	.	.	.	.	.	.	.	.	.	.	.	.	.	.	.	.
8D\	.	16e/LL	.	16ccc#X\LL	.	4G\	-sae	.	4d\	-se	.	4a\	-sae	.	4ee\	-sae	.	.	.	.
.	.	16e/	.	16ccc#X\	.	.	.	.	.	.	.	.	.	.	.	.	.	.	.	.
8D\J	.	16g/	.	16ccc#X\	.	.	.	.	.	.	.	.	.	.	.	.	.	.	.	.
.	.	16g/JJ	.	16ccc#X\JJ	.	.	.	.	.	.	.	.	.	.	.	.	.	.	.	.
=13	=13	=13	=13	=13	=13	=13	=13	=13	=13	=13	=13	=13	=13	=13	=13	=13	=13	=13	=13	=13
!	!	!	!	!LO:LB:g=original	!	!	!	!	!	!	!	!LO:LB:g=original	!	!	!	!	!	!	!	!
8D\L	.	16f#/LL	.	16ddd\LL	.	2F#\	ve-	.	2d\	ve-	.	2a\	ve-	.	2ff#\	ve-	.	2.dd\	2.d/	.
.	.	16f#/	.	16ddd\	.	.	.	.	.	.	.	.	.	.	.	.	.	.	.	.
8D\	.	16a/	.	16ddd\	.	.	.	.	.	.	.	.	.	.	.	.	.	.	.	.
.	.	16a/JJ	.	16ddd\JJ	.	.	.	.	.	.	.	.	.	.	.	.	.	.	.	.
*	*	*rep	*	*	*	*	*	*	*	*	*	*	*	*	*	*	*	*	*	*
8D\	.	16f#/LL	.	16dd\LL	.	.	.	.	.	.	.	.	.	.	.	.	.	.	.	.
.	.	16f#/	.	16dd\	.	.	.	.	.	.	.	.	.	.	.	.	.	.	.	.
8D\	.	16a/	.	16dd\	.	.	.	.	.	.	.	.	.	.	.	.	.	.	.	.
.	.	16a/JJ	.	16dd\JJ	.	.	.	.	.	.	.	.	.	.	.	.	.	.	.	.
*	*	*Xrep	*	*	*	*	*	*	*	*	*	*	*	*	*	*	*	*	*	*
*	*	*rep	*	*	*	*	*	*	*	*	*	*	*	*	*	*	*	*	*	*
8D\	.	16f#/LL	.	16cccn\LL	.	4F#\	-tus	.	4d\	-tus	.	4a\	-tus	.	4ff#\	-tus	.	.	.	.
.	.	16f#/	.	16cccn\	.	.	.	.	.	.	.	.	.	.	.	.	.	.	.	.
8D\J	.	16a/	.	16cccn\	.	.	.	.	.	.	.	.	.	.	.	.	.	.	.	.
.	.	16a/JJ	.	16cccn\JJ	.	.	.	.	.	.	.	.	.	.	.	.	.	.	.	.
*	*	*Xrep	*	*	*	*	*	*	*	*	*	*	*	*	*	*	*	*	*	*
=14	=14	=14	=14	=14	=14	=14	=14	=14	=14	=14	=14	=14	=14	=14	=14	=14	=14	=14	=14	=14
8D\L	.	16g/LL	.	16bb\LL	.	2G\	ter-	.	2.d\	ter-	.	2b\	ter-	.	2gg\	ter-	.	2.dd\	2.d/	.
.	.	16g/	.	16bb\	.	.	.	.	.	.	.	.	.	.	.	.	.	.	.	.
8D\	.	16b/	.	16bb\	.	.	.	.	.	.	.	.	.	.	.	.	.	.	.	.
.	.	16b/JJ	.	16bb\JJ	.	.	.	.	.	.	.	.	.	.	.	.	.	.	.	.
8D\	.	16g/LL	.	16dd\LL	.	.	.	.	.	.	.	.	.	.	.	.	.	.	.	.
.	.	16g/	.	16dd\	.	.	.	.	.	.	.	.	.	.	.	.	.	.	.	.
8D\	.	16b/	.	16dd\	.	.	.	.	.	.	.	.	.	.	.	.	.	.	.	.
.	.	16b/JJ	.	16dd\JJ	.	.	.	.	.	.	.	.	.	.	.	.	.	.	.	.
8D\	.	16e/LL	.	16ccc#X\LL	.	4E\	-mi-	.	.	.	.	4a\	-mi-	.	4ee\	.	.	.	.	.
.	.	16e/	.	16ccc#X\	.	.	.	.	.	.	.	.	.	.	.	.	.	.	.	.
8D\J	.	16g/	.	16ccc#X\	.	.	.	.	.	.	.	.	.	.	.	.	.	.	.	.
.	.	16g/JJ	.	16ccc#X\JJ	.	.	.	.	.	.	.	.	.	.	.	.	.	.	.	.
*	*	*	*	*Xtremolo	*	*	*	*	*	*	*	*	*	*	*	*	*	*	*	*
=15	=15	=15	=15	=15	=15	=15	=15	=15	=15	=15	=15	=15	=15	=15	=15	=15	=15	=15	=15	=15
!	!	!LO:LB:g=original	!	!	!	!	!	!	!	!	!	!	!	!	!LO:LB:g=original	!	!	!	!	!
8D\L	.	8d/L	.	8ddd\L	.	2A\	-nat.	.	8.d\L	.	.	2a\	-nat	.	8.ff#\	.	.	4dd\	4d/	.
16F#\L	.	16f#/L	.	16ff#\L	.	.	.	.	.	.	.	.	.	.	.	.	.	.	.	.
16D\JJ	.	16d/JJ	.	16dd\JJ	.	.	.	.	16d\Jk	-mi-	.	.	.	.	16ff#\	-mi-	.	.	.	.
*	*	*tremolo	*	*	*	*	*	*	*	*	*	*	*	*	*	*	*	*	*	*
!	!	!LO:TX:b:t=P:problem:4 kropki pod nutą	!	!	!	!	!	!	!	!	!	!	!	!	!	!	!	!	!	!
8A\L	.	8a'/L	.	8aa\L	.	.	.	.	4c#\	-nat	.	.	.	.	4ee\	-nat	.	8a/L	8a/L	.
8A\	.	8a'/	.	8aa\	.	.	.	.	.	.	.	.	.	.	.	.	.	8a/	8a/	.
8A\	.	8a'/	.	8aa\	.	4r	.	.	4r	.	.	4r	.	.	4r	.	.	8a/	8a/	.
8A\J	.	8a'/J	.	8aa\J	.	.	.	.	.	.	.	.	.	.	.	.	.	8a/J	8a/J	.
*	*	*Xtremolo	*	*	*	*	*	*	*	*	*	*	*	*	*	*	*	*	*	*
=16	=16	=16	=16	=16	=16	=16	=16	=16	=16	=16	=16	=16	=16	=16	=16	=16	=16	=16	=16	=16
!LO:LB:g=original	!	!	!	!	!	!	!	!	!	!	!	!	!	!	!	!	!	!	!	!
!	!	!	!	!	!	!LO:N:vis=0	!	!	!	!	!	!	!	!	!	!	!	!	!	!
4A\	.	4a/	.	4aa\	.	1.r	.	.	2.r	.	.	2.r	.	.	2.r	.	.	4a/	4a/	.
4r	.	4r	.	4r	.	.	.	.	.	.	.	.	.	.	.	.	.	4r	4r	.
4r	.	4r	.	4r	.	.	.	.	.	.	.	.	.	.	.	.	.	4r	4r	.
=17	=17	=17	=17	=17	=17	=17	=17	=17	=17	=17	=17	=17	=17	=17	=17	=17	=17	=17	=17	=17
!	!	!	!	!	!	!	!	!	!LO:LB:g=original	!	!	!	!	!	!	!	!	!	!	!
!LO:N:vis=00	!	!LO:N:vis=00	!	!LO:N:vis=00	!	!	!	!	!	!	!	!	!	!	!	!	!	!LO:N:vis=00	!LO:N:vis=00	!
0.r	.	0.r	.	0.r	.	.	.	.	2A\	in	.	2cc#\	in	.	2ee\	in	.	0.r	0.r	.
.	.	.	.	.	.	.	.	.	4A\	hač	.	4cc#\	hač	.	4ee\	hač	.	.	.	.
=18	=18	=18	=18	=18	=18	=18	=18	=18	=18	=18	=18	=18	=18	=18	=18	=18	=18	=18	=18	=18
.	.	.	.	.	.	2.r	.	.	2A\	Men-	.	4dd\	Men-	.	(4ff#\	Men-	.	.	.	.
.	.	.	.	.	.	.	.	.	.	.	.	4cc#\	.	.	4ee\	.	.	.	.	.
.	.	.	.	.	.	.	.	.	4A\	-sae	.	4b\	-sae	.	4dd\)	-ša	.	.	.	.
=19	=19	=19	=19	=19	=19	=19	=19	=19	=19	=19	=19	=19	=19	=19	=19	=19	=19	=19	=19	=19
!	!	!	!	!	!	!	!	!LO:DY:rj:t=piano.	!	!	!	!	!	!	!	!	!	!	!	!
.	.	.	.	.	.	2A\	no-	p	2A\	no-	.	4a\	no-	.	(4cc#\	no-	.	.	.	.
.	.	.	.	.	.	.	.	.	.	.	.	4b\	.	.	4dd\	.	.	.	.	.
.	.	.	.	.	.	4A\	-vi	.	4A\	-vae	.	4cc#\	-vi	.	4ee\)	-vi	.	.	.	.
=20	=20	=20	=20	=20	=20	=20	=20	=20	=20	=20	=20	=20	=20	=20	=20	=20	=20	=20	=20	=20
.	.	.	.	.	.	2A\	Re-	.	2A\	Le-	.	4dd\	Re-	.	4ff#\	Re-	.	.	.	.
.	.	.	.	.	.	.	.	.	.	.	.	4cc#\	.	.	(4ee\	.	.	.	.	.
.	.	.	.	.	.	4A\	-gis	.	4A\	-gis	.	4b\	-gis	.	4dd\)	-gis	.	.	.	.
=21	=21	=21	=21	=21	=21	=21	=21	=21	=21	=21	=21	=21	=21	=21	=21	=21	=21	=21	=21	=21
!	!	!	!	!	!	!LO:LB:g=original	!	!	!	!	!	!LO:LB:g=original	!	!	!	!	!	!	!	!
!LO:N:vis=0	!	!LO:N:vis=0	!	!LO:N:vis=0	!	!	!	!	!	!	!	!	!	!	!	!	!	!LO:N:vis=0	!LO:N:vis=0	!
1.r	.	1.r	.	1.r	.	2A\	no-	.	2A\	Pha-	.	4a\	no-	.	(4cc#\	no-	.	1.r	1.r	.
.	.	.	.	.	.	.	.	.	.	.	.	4b\	.	.	4dd\)	.	.	.	.	.
.	.	.	.	.	.	4A#X\	-vum	.	4A#X\	-sae	.	4cc#\	-vum	.	4ee\	-vum	.	.	.	.
=22	=22	=22	=22	=22	=22	=22	=22	=22	=22	=22	=22	=22	=22	=22	=22	=22	=22	=22	=22	=22
!	!	!	!	!	!	!	!	!	!	!	!	!	!	!	!LO:LB:g=original	!	!	!	!	!
.	.	.	.	.	.	4B\	Paš-	.	2B\	ve-	.	2b\	Paš-	.	2dd\	Paš-	.	.	.	.
.	.	.	.	.	.	4G#X\	.	.	.	.	.	.	.	.	.	.	.	.	.	.
.	.	.	.	.	.	4A\	-ca	.	4e\	-tus	.	4a\	-ca	.	4cc#\	-ca	.	.	.	.
=23	=23	=23	=23	=23	=23	=23	=23	=23	=23	=23	=23	=23	=23	=23	=23	=23	=23	=23	=23	=23
!	!	!	!	!	!	!	!	!	!LO:LB:g=original	!	!	!	!	!	!	!	!	!	!	!
!	!	!	!LO:DY:t=for	!	!	!	!	!	!	!	!	!	!	!	!	!	!	!	!	!
2.r	.	4r	f	4r	.	4E\	Paš-	.	4e\	ve-	.	4a\	Paš-	.	4cc#\	Paš-	.	2.r	2.r	.
.	.	(16e/LL	.	(16ee\LL	f	4E\	-ca	.	4e\	-tus	.	4g#X\	-ca	.	4b\	-ca	.	.	.	.
.	.	16f#/)	.	16ff#\)	.	.	.	.	.	.	.	.	.	.	.	.	.	.	.	.
.	.	(16e/	.	(16ee\	.	.	.	.	.	.	.	.	.	.	.	.	.	.	.	.
.	.	16f#/JJ)	.	16ff#\JJ)	.	.	.	.	.	.	.	.	.	.	.	.	.	.	.	.
.	.	(16g#X/LL	.	(16gg#X\LL	.	4r	.	.	4r	.	.	4r	.	.	4r	.	.	.	.	.
.	.	16a/)	.	16aa\)	.	.	.	.	.	.	.	.	.	.	.	.	.	.	.	.
.	.	(16g#/	.	(16gg#\	.	.	.	.	.	.	.	.	.	.	.	.	.	.	.	.
.	.	16a/JJ)	.	16aa\JJ)	.	.	.	.	.	.	.	.	.	.	.	.	.	.	.	.
=24	=24	=24	=24	=24	=24	=24	=24	=24	=24	=24	=24	=24	=24	=24	=24	=24	=24	=24	=24	=24
*	*	*tremolo	*	*	*	*	*	*	*	*	*	*	*	*	*	*	*	*tremolo	*	*
!	!	!	!	!	!	!	!	!LO:DY:t=for&colon;	!	!	!	!	!	!	!	!	!	!	!	!
8G#X\L	f	8b 8e/L	.	8bb\L	.	2.G#X\	no-	f	2.e\	termi-	.	2.b\	no-	.	2.dd\	no-	.	8ee\L	2.ee\	.
8G#X\	.	8b 8e/	.	8dd\	.	.	.	.	.	.	.	.	.	.	.	.	.	8ee\	.	.
8G#X\	.	8b 8e/	.	8dd\	.	.	.	.	.	.	.	.	.	.	.	.	.	8ee\	.	.
8G#X\	.	8b 8e/	.	8dd\	.	.	.	.	.	.	.	.	.	.	.	.	.	8ee\	.	.
8G#X\	.	8b 8e/	.	8dd\	.	.	.	.	.	.	.	.	.	.	.	.	.	8ee\	.	.
8G#X\J	.	8b 8e/J	.	8dd\J	.	.	.	.	.	.	.	.	.	.	.	.	.	8ee\J	.	.
*	*	*Xtremolo	*	*	*	*	*	*	*	*	*	*	*	*	*	*	*	*	*	*
=25	=25	=25	=25	=25	=25	=25	=25	=25	=25	=25	=25	=25	=25	=25	=25	=25	=25	=25	=25	=25
!	!	!	!	!LO:LB:g=original	!	!	!	!	!	!	!	!	!	!	!	!	!	!	!	!
4A\	.	4a/	.	4cc#\	.	4A\	-vum	.	4e\	-nat	.	4a\	-vum	.	4cc#\	-vum	.	4a/	4ee\	.
4AA/	.	16a/LL	.	16cc#\LL	.	4r	.	.	4r	.	.	4r	.	.	4r	.	.	4r	4r	.
.	.	16A/	.	16a\	.	.	.	.	.	.	.	.	.	.	.	.	.	.	.	.
.	.	16B/	.	16b\	.	.	.	.	.	.	.	.	.	.	.	.	.	.	.	.
.	.	16c#/JJ	.	16cc#\JJ	.	.	.	.	.	.	.	.	.	.	.	.	.	.	.	.
4r	.	16d/LL	.	16dd\LL	.	4r	.	.	4r	.	.	4r	.	.	4r	.	.	4r	4r	.
.	.	16e/	.	16ee\	.	.	.	.	.	.	.	.	.	.	.	.	.	.	.	.
.	.	16f#/	.	16ff#\	.	.	.	.	.	.	.	.	.	.	.	.	.	.	.	.
.	.	16g#X/JJ	.	16gg#X\JJ	.	.	.	.	.	.	.	.	.	.	.	.	.	.	.	.
=26	=26	=26	=26	=26	=26	=26	=26	=26	=26	=26	=26	=26	=26	=26	=26	=26	=26	=26	=26	=26
!	!	!LO:LB:g=original	!	!	!	!	!	!	!	!	!	!	!	!	!	!	!	!LO:LB:g=original	!	!
*	*	*^	*	*	*	*	*	*	*	*	*	*	*	*	*	*	*	*	*	*
*	*	*tremolo	*tremolo	*	*	*	*	*	*	*	*	*	*	*	*	*	*	*	*	*	*
*	*	*	*2\right	*	*	*	*	*	*	*	*	*	*	*	*	*	*	*	*	*	*
8A\L	.	8a/L	8e\L	.	8aa\L	.	2.A\	Paš-	.	2.e\	no-	.	2.a\	Paš-	.	2.cc#\	Paš-	.	8ee\L	2.a/	.
8A\	.	8a/	8e\	.	8cc#\	.	.	.	.	.	.	.	.	.	.	.	.	.	8ee\	.	.
8A\	.	8a/	8e\	.	8cc#\	.	.	.	.	.	.	.	.	.	.	.	.	.	8ee\	.	.
8A\	.	8a/	8e\	.	8cc#\	.	.	.	.	.	.	.	.	.	.	.	.	.	8ee\	.	.
8A\	.	8a/	8e\	.	8cc#\	.	.	.	.	.	.	.	.	.	.	.	.	.	8ee\	.	.
8A\J	.	8a/J	8e\J	.	8cc#\J	.	.	.	.	.	.	.	.	.	.	.	.	.	8ee\J	.	.
*	*	*Xtremolo	*Xtremolo	*	*	*	*	*	*	*	*	*	*	*	*	*	*	*	*Xtremolo	*	*
*	*	*v	*v	*	*	*	*	*	*	*	*	*	*	*	*	*	*	*	*	*	*
=27	=27	=27	=27	=27	=27	=27	=27	=27	=27	=27	=27	=27	=27	=27	=27	=27	=27	=27	=27	=27
4E\	.	4g#X/	.	4b\	.	4E\	-ca	.	4e\	-vum	.	4g#X\	-ca	.	4b\	-ca	.	4ee\	4ee\	.
4EE/	.	(16e/LL	.	(16ee\LL	.	4r	.	.	4r	.	.	4r	.	.	4r	.	.	4r	4r	.
.	.	16f#/)	.	16ff#\)	.	.	.	.	.	.	.	.	.	.	.	.	.	.	.	.
.	.	(16e/	.	(16ee\	.	.	.	.	.	.	.	.	.	.	.	.	.	.	.	.
.	.	16f#/JJ)	.	16ff#\JJ)	.	.	.	.	.	.	.	.	.	.	.	.	.	.	.	.
4r	.	(16g#/LL	.	(16gg#X\LL	.	4r	.	.	4r	.	.	4r	.	.	4r	.	.	4r	4r	.
.	.	16a/)	.	16aa\)	.	.	.	.	.	.	.	.	.	.	.	.	.	.	.	.
.	.	(16g#/	.	(16gg#\	.	.	.	.	.	.	.	.	.	.	.	.	.	.	.	.
.	.	16a/JJ)	.	16aa\JJ)	.	.	.	.	.	.	.	.	.	.	.	.	.	.	.	.
=28	=28	=28	=28	=28	=28	=28	=28	=28	=28	=28	=28	=28	=28	=28	=28	=28	=28	=28	=28	=28
!	!	!	!	!	!	!	!LO:LB:g=original	!	!	!	!	!	!	!	!	!	!	!	!LO:LB:g=original	!
*	*	*^	*	*	*	*	*	*	*	*	*	*	*	*	*	*	*	*	*	*
*	*	*tremolo	*tremolo	*	*	*	*	*	*	*	*	*	*	*	*	*	*	*	*	*	*
8G#X\L	.	8b/L	8e\L	.	8bb\L	.	2G#X\	no-	.	2e\	no-	.	2b\	no-	.	2dd\	no-	.	2ee\	2.ee\	.
8G#X\	.	8b/	8e\	.	8dd\	.	.	.	.	.	.	.	.	.	.	.	.	.	.	.	.
8G#X\	.	8b/	8e\	.	8dd\	.	.	.	.	.	.	.	.	.	.	.	.	.	.	.	.
8G#X\	.	8b/	8e\	.	8dd\	.	.	.	.	.	.	.	.	.	.	.	.	.	.	.	.
8G#X\	.	8b/	8e\	.	8dd\	.	4G#\	-vae	.	4e\	-vae	.	4b\	-vae	.	4dd\	-vae	.	4r	.	.
8G#X\J	.	8b/J	8e\J	.	8dd\J	.	.	.	.	.	.	.	.	.	.	.	.	.	.	.	.
*	*	*v	*v	*	*	*	*	*	*	*	*	*	*	*	*	*	*	*	*	*	*
=29	=29	=29	=29	=29	=29	=29	=29	=29	=29	=29	=29	=29	=29	=29	=29	=29	=29	=29	=29	=29
!	!	!	!	!	!	!	!	!	!	!	!	!LO:LB:g=original	!	!	!	!	!	!	!	!
4A\	.	16a\LL	.	4cc#\	.	4A\	Le-	.	4e\	le-	.	4a\	le-	.	4cc#\	le-	.	4ee\	4a/	.
.	.	16a\	.	.	.	.	.	.	.	.	.	.	.	.	.	.	.	.	.	.
.	.	16a\	.	.	.	.	.	.	.	.	.	.	.	.	.	.	.	.	.	.
.	.	16a\	.	.	.	.	.	.	.	.	.	.	.	.	.	.	.	.	.	.
4AA/	.	16a\	.	16cc#\LL	.	4A\	-gis	.	4e\	-gis	.	4a\	-gis	.	4cc#\	-gis	.	4r	4r	.
.	.	16a\	.	16cc#\	.	.	.	.	.	.	.	.	.	.	.	.	.	.	.	.
.	.	16a\	.	16aa\	.	.	.	.	.	.	.	.	.	.	.	.	.	.	.	.
.	.	16a\	.	16aa\JJ	.	.	.	.	.	.	.	.	.	.	.	.	.	.	.	.
4r	.	16a\	.	16cc#\LL	.	4r	.	.	4r	.	.	4r	.	.	4r	.	.	4r	4r	.
.	.	16a\	.	16cc#\	.	.	.	.	.	.	.	.	.	.	.	.	.	.	.	.
.	.	16a\	.	16aa\	.	.	.	.	.	.	.	.	.	.	.	.	.	.	.	.
.	.	16a\JJ	.	16aa\JJ	.	.	.	.	.	.	.	.	.	.	.	.	.	.	.	.
=30	=30	=30	=30	=30	=30	=30	=30	=30	=30	=30	=30	=30	=30	=30	=30	=30	=30	=30	=30	=30
!	!	!	!	!LO:LB:g=original	!	!	!	!	!	!	!	!	!	!	!LO:LB:g=original	!	!	!	!	!
8d\L	.	16a\LL	.	16ff#\LL	.	2d\	Pha-	.	2A\	Pha-	.	2a\	Pha-	.	2ff#\	Pha-	.	2.a/	2.aa\	.
.	.	16a\	.	16ff#\	.	.	.	.	.	.	.	.	.	.	.	.	.	.	.	.
8d\	.	16a\	.	16aa\	.	.	.	.	.	.	.	.	.	.	.	.	.	.	.	.
.	.	16a\	.	16aa\JJ	.	.	.	.	.	.	.	.	.	.	.	.	.	.	.	.
8d\	.	16a\	.	16ff#\LL	.	.	.	.	.	.	.	.	.	.	.	.	.	.	.	.
.	.	16a\	.	16ff#\	.	.	.	.	.	.	.	.	.	.	.	.	.	.	.	.
8d\J	.	16a\	.	16aa\	.	.	.	.	.	.	.	.	.	.	.	.	.	.	.	.
.	.	16a\	.	16aa\JJ	.	.	.	.	.	.	.	.	.	.	.	.	.	.	.	.
*Xtremolo	*	*	*	*	*	*	*	*	*	*	*	*	*	*	*	*	*	*	*	*
8c#\L	.	16a\	.	16ee\LL	.	4c#\	-se	.	4A\	-sae	.	4a\	-se	.	4ee\	-se	.	.	.	.
.	.	16a\	.	16ee\	.	.	.	.	.	.	.	.	.	.	.	.	.	.	.	.
8c#\J	.	16a\	.	16aa\	.	.	.	.	.	.	.	.	.	.	.	.	.	.	.	.
.	.	16a\JJ	.	16aa\JJ	.	.	.	.	.	.	.	.	.	.	.	.	.	.	.	.
=31	=31	=31	=31	=31	=31	=31	=31	=31	=31	=31	=31	=31	=31	=31	=31	=31	=31	=31	=31	=31
!LO:LB:g=original	!	!	!	!	!	!	!	!	!LO:LB:g=original	!	!	!	!	!	!	!	!	!	!	!
*tremolo	*	*	*	*	*	*	*	*	*	*	*	*	*	*	*	*	*	*	*	*
8B\L	.	16a\LL	.	16dd\LL	.	2B\	ve-	.	2A\	ve-	.	2a\	ve-	.	2dd\	ve-	.	2.a/	2.aa\	.
.	.	16a\	.	16dd\	.	.	.	.	.	.	.	.	.	.	.	.	.	.	.	.
8B\	.	16a\	.	16aa\	.	.	.	.	.	.	.	.	.	.	.	.	.	.	.	.
.	.	16a\	.	16aa\JJ	.	.	.	.	.	.	.	.	.	.	.	.	.	.	.	.
8B\	.	16a\	.	16dd\LL	.	.	.	.	.	.	.	.	.	.	.	.	.	.	.	.
.	.	16a\	.	16dd\	.	.	.	.	.	.	.	.	.	.	.	.	.	.	.	.
8B\J	.	16a\	.	16aa\	.	.	.	.	.	.	.	.	.	.	.	.	.	.	.	.
.	.	16a\	.	16aa\JJ	.	.	.	.	.	.	.	.	.	.	.	.	.	.	.	.
*Xtremolo	*	*	*	*	*	*	*	*	*	*	*	*	*	*	*	*	*	*	*	*
8A\L	.	16a\	.	16cc#\LL	.	4A\	-tus	.	4A\	-tus	.	4a\	-tus	.	4cc#\	-tus	.	.	.	.
.	.	16a\	.	16cc#\	.	.	.	.	.	.	.	.	.	.	.	.	.	.	.	.
8A\J	.	16a\	.	16aa\	.	.	.	.	.	.	.	.	.	.	.	.	.	.	.	.
.	.	16a\JJ	.	16aa\JJ	.	.	.	.	.	.	.	.	.	.	.	.	.	.	.	.
=32	=32	=32	=32	=32	=32	=32	=32	=32	=32	=32	=32	=32	=32	=32	=32	=32	=32	=32	=32	=32
!	!	!	!	!	!	!	!	!	!	!	!	!LO:TX:a:t=P:problem:brak taktów 32-33	!	!	!	!	!	!	!	!
*tremolo	*	*	*	*	*	*	*	*	*	*	*	*	*	*	*	*	*	*	*	*
8d\L	.	16a\LL	.	16ff#\LL	.	2d\	Pha-	.	2d\	Pha-	.	2.ryy	.	.	2ff#\	Pha-	.	2.a/	2.aa\	.
.	.	16a\	.	16ff#\	.	.	.	.	.	.	.	.	.	.	.	.	.	.	.	.
8d\	.	16a\	.	16aa\	.	.	.	.	.	.	.	.	.	.	.	.	.	.	.	.
.	.	16a\	.	16aa\JJ	.	.	.	.	.	.	.	.	.	.	.	.	.	.	.	.
8d\	.	16a\	.	16ff#\LL	.	.	.	.	.	.	.	.	.	.	.	.	.	.	.	.
.	.	16a\	.	16ff#\	.	.	.	.	.	.	.	.	.	.	.	.	.	.	.	.
8d\J	.	16a\	.	16aa\	.	.	.	.	.	.	.	.	.	.	.	.	.	.	.	.
.	.	16a\	.	16aa\JJ	.	.	.	.	.	.	.	.	.	.	.	.	.	.	.	.
*Xtremolo	*	*	*	*	*	*	*	*	*	*	*	*	*	*	*	*	*	*	*	*
8c#\L	.	16a\	.	16ee\LL	.	4c#\	-se	.	4c#\	-sae	.	.	.	.	4ee\	-se	.	.	.	.
.	.	16a\	.	16ee\	.	.	.	.	.	.	.	.	.	.	.	.	.	.	.	.
8c#\J	.	16a\	.	16aa\	.	.	.	.	.	.	.	.	.	.	.	.	.	.	.	.
.	.	16a\JJ	.	16aa\JJ	.	.	.	.	.	.	.	.	.	.	.	.	.	.	.	.
=33	=33	=33	=33	=33	=33	=33	=33	=33	=33	=33	=33	=33	=33	=33	=33	=33	=33	=33	=33	=33
*tremolo	*	*	*	*	*	*	*	*	*	*	*	*	*	*	*	*	*	*	*	*
8B\L	.	16a\LL	.	16dd\LL	.	2B\	ve-	.	2d\	ve-	.	2.ryy	.	.	2dd\	ve-	.	2.a/	2.aa\	.
.	.	16a\	.	16dd\	.	.	.	.	.	.	.	.	.	.	.	.	.	.	.	.
8B\	.	16a\	.	16aa\	.	.	.	.	.	.	.	.	.	.	.	.	.	.	.	.
.	.	16a\	.	16aa\JJ	.	.	.	.	.	.	.	.	.	.	.	.	.	.	.	.
!	!	!	!	!LO:LB:g=original	!	!	!	!	!	!	!	!	!	!	!	!	!	!	!	!
8B\	.	16a\	.	16dd\LL	.	.	.	.	.	.	.	.	.	.	.	.	.	.	.	.
.	.	16a\	.	16dd\	.	.	.	.	.	.	.	.	.	.	.	.	.	.	.	.
8B\J	.	16a\	.	16aa\	.	.	.	.	.	.	.	.	.	.	.	.	.	.	.	.
.	.	16a\	.	16aa\JJ	.	.	.	.	.	.	.	.	.	.	.	.	.	.	.	.
*Xtremolo	*	*	*	*	*	*	*	*	*	*	*	*	*	*	*	*	*	*	*	*
8A\L	.	16a\	.	16cc#\LL	.	4A\	-tus	.	4e\	-tus	.	.	.	.	4cc#\	-tus	.	.	.	.
.	.	16a\	.	16cc#\	.	.	.	.	.	.	.	.	.	.	.	.	.	.	.	.
8A\J	.	16a\	.	16aa\	.	.	.	.	.	.	.	.	.	.	.	.	.	.	.	.
.	.	16a\JJ	.	16aa\JJ	.	.	.	.	.	.	.	.	.	.	.	.	.	.	.	.
=34	=34	=34	=34	=34	=34	=34	=34	=34	=34	=34	=34	=34	=34	=34	=34	=34	=34	=34	=34	=34
*	*	*^	*	*	*	*	*	*	*	*	*	*	*	*	*	*	*	*	*	*
*tremolo	*	*	*tremolo	*	*	*	*	*	*	*	*	*	*	*	*	*	*	*	*	*	*
8D\L	.	16a/LL	16f#\LL	.	16b\LL	.	2.d\	ter-	.	2.f#\	ter-	.	2.a\	ter-	.	2.b\	ter-	.	2.a/	2.aa\	.
.	.	16a/	16f#\	.	16b\	.	.	.	.	.	.	.	.	.	.	.	.	.	.	.	.
8D\	.	16a/	16f#\	.	16aa\	.	.	.	.	.	.	.	.	.	.	.	.	.	.	.	.
.	.	16a/	16f#\	.	16aa\JJ	.	.	.	.	.	.	.	.	.	.	.	.	.	.	.	.
8D\	.	16a/	16f#\	.	16b\LL	.	.	.	.	.	.	.	.	.	.	.	.	.	.	.	.
.	.	16a/	16f#\	.	16b\	.	.	.	.	.	.	.	.	.	.	.	.	.	.	.	.
8D\	.	16a/	16f#\	.	16aa\	.	.	.	.	.	.	.	.	.	.	.	.	.	.	.	.
.	.	16a/	16f#\	.	16aa\JJ	.	.	.	.	.	.	.	.	.	.	.	.	.	.	.	.
8D\	.	16a/	16f#\	.	16b\LL	.	.	.	.	.	.	.	.	.	.	.	.	.	.	.	.
.	.	16a/	16f#\	.	16b\	.	.	.	.	.	.	.	.	.	.	.	.	.	.	.	.
8D\J	.	16a/	16f#\	.	16aa\	.	.	.	.	.	.	.	.	.	.	.	.	.	.	.	.
.	.	16a/JJ	16f#\JJ	.	16aa\JJ	.	.	.	.	.	.	.	.	.	.	.	.	.	.	.	.
*	*	*Xtremolo	*Xtremolo	*	*	*	*	*	*	*	*	*	*	*	*	*	*	*	*	*	*
*	*	*v	*v	*	*	*	*	*	*	*	*	*	*	*	*	*	*	*	*	*	*
=35	=35	=35	=35	=35	=35	=35	=35	=35	=35	=35	=35	=35	=35	=35	=35	=35	=35	=35	=35	=35
!	!	!LO:LB:g=original	!	!	!	!LO:PB:g=original	!	!	!	!	!	!	!	!	!	!	!	!	!	!
8E\L	.	16g#X/LL	.	16b\LL	.	2e\	.	.	2e\	.	.	2g#X\	.	.	2b\	.	.	2.ee\	2.gg#X\	.
.	.	16g#/	.	16b\	.	.	.	.	.	.	.	.	.	.	.	.	.	.	.	.
8E\	.	16b/	.	16gg#X\	.	.	.	.	.	.	.	.	.	.	.	.	.	.	.	.
.	.	16b/JJ	.	16gg#\JJ	.	.	.	.	.	.	.	.	.	.	.	.	.	.	.	.
*	*	*rep	*	*rep	*	*	*	*	*	*	*	*	*	*	*	*	*	*	*	*
8E\	.	16g#X/LL	.	16b\LL	.	.	.	.	.	.	.	.	.	.	.	.	.	.	.	.
.	.	16g#/	.	16b\	.	.	.	.	.	.	.	.	.	.	.	.	.	.	.	.
8E\	.	16b/	.	16gg#\	.	.	.	.	.	.	.	.	.	.	.	.	.	.	.	.
.	.	16b/JJ	.	16gg#\JJ	.	.	.	.	.	.	.	.	.	.	.	.	.	.	.	.
*	*	*Xrep	*	*Xrep	*	*	*	*	*	*	*	*	*	*	*	*	*	*	*	*
*	*	*rep	*	*rep	*	*	*	*	*	*	*	*	*	*	*	*	*	*	*	*
8E\	.	16g#X/LL	.	16b\LL	.	4E\	-mi-	.	4e\	-mi-	.	4g#\	-mi-	.	4b\	-mi-	.	.	.	.
.	.	16g#/	.	16b\	.	.	.	.	.	.	.	.	.	.	.	.	.	.	.	.
8E\J	.	16b/	.	16gg#\	.	.	.	.	.	.	.	.	.	.	.	.	.	.	.	.
.	.	16b/JJ	.	16gg#\JJ	.	.	.	.	.	.	.	.	.	.	.	.	.	.	.	.
*	*	*Xrep	*	*Xrep	*	*	*	*	*	*	*	*	*	*	*	*	*	*	*	*
=36	=36	=36	=36	=36	=36	=36	=36	=36	=36	=36	=36	=36	=36	=36	=36	=36	=36	=36	=36	=36
!LO:TX:a:t=P:problem:mixed beam	!	!	!	!	!	!	!	!	!	!	!	!	!	!	!	!	!	!	!	!
8AA/L	.	8a\L	.	4aa\	.	4A\	-nat	.	4e\	-nat	.	4a\	-nat	.	4cc#\	-nat	.	4a/	4aa\	.
!	!LO:DY:t=fpiano.	!	!	!	!	!	!	!	!	!	!	!	!	!	!	!	!	!	!	!
8A\J	fp	8cc#\	.	.	.	.	.	.	.	.	.	.	.	.	.	.	.	.	.	.
!	!	!	!	!	!LO:DY:t=po&colon;	!	!	!	!	!	!	!	!	!	!	!	!	!	!	!
8A\L	.	8cc#\	p	8r	p	4r	.	.	4r	.	.	4r	.	.	4r	.	.	4r	4r	.
8A\	.	8cc#\	.	(16ee\LL	.	.	.	.	.	.	.	.	.	.	.	.	.	.	.	.
.	.	.	.	16ff#\JJ)	.	.	.	.	.	.	.	.	.	.	.	.	.	.	.	.
8A\	.	8cc#\	.	8ee'\L	.	4r	.	.	4r	.	.	4r	.	.	4r	.	.	4r	4r	.
8A\J	.	8cc#\J	.	8ee'\J	.	.	.	.	.	.	.	.	.	.	.	.	.	.	.	.
=37	=37	=37	=37	=37	=37	=37	=37	=37	=37	=37	=37	=37	=37	=37	=37	=37	=37	=37	=37	=37
!	!	!	!	!	!	!LO:N:vis=00	!	!	!LO:N:vis=00	!	!	!LO:N:vis=0	!	!	!LO:N:vis=0	!	!	!LO:N:vis=00	!LO:N:vis=00	!
*	*	*tremolo	*	*	*	*	*	*	*	*	*	*	*	*	*	*	*	*	*	*
8B\L	.	8dd 8e\L	.	8ee\L	.	0.r	.	.	0.r	.	.	1.r	.	.	1.r	.	.	0.r	0.r	.
8B\	.	8dd 8e\	.	8ddd\	.	.	.	.	.	.	.	.	.	.	.	.	.	.	.	.
8B\	.	8dd 8e\	.	(8ccc#\	.	.	.	.	.	.	.	.	.	.	.	.	.	.	.	.
8B\	.	8dd 8e\	.	8bb\	.	.	.	.	.	.	.	.	.	.	.	.	.	.	.	.
8B\	.	8dd 8e\	.	8aa\)	.	.	.	.	.	.	.	.	.	.	.	.	.	.	.	.
8B\J	.	8dd 8e\J	.	8gg#X\J	.	.	.	.	.	.	.	.	.	.	.	.	.	.	.	.
=38	=38	=38	=38	=38	=38	=38	=38	=38	=38	=38	=38	=38	=38	=38	=38	=38	=38	=38	=38	=38
!	!	!	!	!LO:LB:g=original	!	!	!	!	!	!	!	!	!	!	!	!	!	!	!	!
8A\L	.	8cc# 8e\L	.	4aa\	.	.	.	.	.	.	.	.	.	.	.	.	.	.	.	.
8A\	.	8cc# 8e\	.	.	.	.	.	.	.	.	.	.	.	.	.	.	.	.	.	.
8A\	.	8cc# 8e\	.	8r	.	.	.	.	.	.	.	.	.	.	.	.	.	.	.	.
8A\	.	8cc# 8e\	.	(16ee\LL	.	.	.	.	.	.	.	.	.	.	.	.	.	.	.	.
.	.	.	.	16ff#\JJ)	.	.	.	.	.	.	.	.	.	.	.	.	.	.	.	.
8A\	.	8cc# 8e\	.	8ee'\L	.	.	.	.	.	.	.	.	.	.	.	.	.	.	.	.
8A\J	.	8cc# 8e\J	.	8ee'\J	.	.	.	.	.	.	.	.	.	.	.	.	.	.	.	.
=39	=39	=39	=39	=39	=39	=39	=39	=39	=39	=39	=39	=39	=39	=39	=39	=39	=39	=39	=39	=39
!LO:LB:g=original	!	!	!	!	!	!	!	!	!	!	!	!	!	!	!	!	!	!	!	!
8B\L	.	8dd 8e\L	.	8ee\L	.	.	.	.	.	.	.	2.r	.	.	2.r	.	.	.	.	.
8B\	.	8dd 8e\	.	(8ddd\J	.	.	.	.	.	.	.	.	.	.	.	.	.	.	.	.
8B\	.	8dd 8e\	.	8ccc#\L	.	.	.	.	.	.	.	.	.	.	.	.	.	.	.	.
8B\	.	8dd 8e\	.	8bb\J	.	.	.	.	.	.	.	.	.	.	.	.	.	.	.	.
8B\	.	8dd 8e\	.	8aa\L)	.	.	.	.	.	.	.	.	.	.	.	.	.	.	.	.
!	!	!	!	!	!	!	!	!	!	!	!	!LO:TX:a:i:t=Solo	!	!	!	!	!	!	!	!
8B\J	.	8dd 8e\J	.	8gg#X\J	.	.	.	.	.	.	.	.	.	.	.	.	.	.	.	.
=40	=40	=40	=40	=40	=40	=40	=40	=40	=40	=40	=40	=40	=40	=40	=40	=40	=40	=40	=40	=40
!	!	!	!	!	!	!	!	!	!	!	!	!	!	!	!LO:LB:g=original	!	!	!	!	!
!	!	!	!	!	!	!	!	!	!	!	!	!	!	!	!	!	!LO:DY:b:t=po.	!	!	!
8A\L	.	8cc#\L	.	4aa\	.	.	.	.	.	.	.	2cc#\	ve-	.	2ee\	ve-	p	.	.	.
8A\	.	8cc#\	.	.	.	.	.	.	.	.	.	.	.	.	.	.	.	.	.	.
8A\	.	8cc#\	.	8r	.	.	.	.	.	.	.	.	.	.	.	.	.	.	.	.
8A\	.	8cc#\	.	(16ee\LL	.	.	.	.	.	.	.	.	.	.	.	.	.	.	.	.
.	.	.	.	16ff#\JJ)	.	.	.	.	.	.	.	.	.	.	.	.	.	.	.	.
8A\	.	8cc#\	.	8ee'\L	.	.	.	.	.	.	.	4cc#\	-tus-	.	4ee\	-tus-	.	.	.	.
8A\J	.	8cc#\J	.	8ee'\J	.	.	.	.	.	.	.	.	.	.	.	.	.	.	.	.
=41	=41	=41	=41	=41	=41	=41	=41	=41	=41	=41	=41	=41	=41	=41	=41	=41	=41	=41	=41	=41
!	!	!	!	!	!	!	!	!	!	!	!	!LO:LB:g=original	!	!	!	!	!	!	!	!
!	!	!	!	!	!	!LO:N:vis=00	!	!	!LO:N:vis=00	!	!	!	!	!	!	!	!	!LO:N:vis=00	!LO:N:vis=00	!
8A\L	.	8dd\L	.	4aa\	.	0.r	.	.	0.r	.	.	2.dd\	-ta-	.	2.ff#\	-ta-	.	0.r	0.r	.
8A\	.	8dd\	.	.	.	.	.	.	.	.	.	.	.	.	.	.	.	.	.	.
8A\	.	8dd\	.	8r	.	.	.	.	.	.	.	.	.	.	.	.	.	.	.	.
8A\	.	8dd\	.	(16ff#\LL	.	.	.	.	.	.	.	.	.	.	.	.	.	.	.	.
.	.	.	.	16gg\JJ)	.	.	.	.	.	.	.	.	.	.	.	.	.	.	.	.
8A\	.	8dd\	.	8ff#'\L	.	.	.	.	.	.	.	.	.	.	.	.	.	.	.	.
8A\J	.	8dd\J	.	8ff#'\J	.	.	.	.	.	.	.	.	.	.	.	.	.	.	.	.
=42	=42	=42	=42	=42	=42	=42	=42	=42	=42	=42	=42	=42	=42	=42	=42	=42	=42	=42	=42	=42
8A\L	.	8cc#\L	.	4aa\	.	.	.	.	.	.	.	4cc#\	-tem	.	4ee\	-tem	.	.	.	.
8A\	.	8cc#\	.	.	.	.	.	.	.	.	.	.	.	.	.	.	.	.	.	.
8A\	.	8cc#\	.	8r	.	.	.	.	.	.	.	4r	.	.	4r	.	.	.	.	.
8A\	.	8cc#\	.	(16ee\LL	.	.	.	.	.	.	.	.	.	.	.	.	.	.	.	.
.	.	.	.	16ff#\JJ)	.	.	.	.	.	.	.	.	.	.	.	.	.	.	.	.
8A\	.	8cc#\	.	8ee'\L	.	.	.	.	.	.	.	4r	.	.	4r	.	.	.	.	.
8A\J	.	8cc#\J	.	8ee'\J	.	.	.	.	.	.	.	.	.	.	.	.	.	.	.	.
=43	=43	=43	=43	=43	=43	=43	=43	=43	=43	=43	=43	=43	=43	=43	=43	=43	=43	=43	=43	=43
8G#X\L	.	8b 8e/L	.	4dd\	.	.	.	.	.	.	.	2b\	No-	.	2dd\	no-	.	.	.	.
8G#X\	.	8b 8e/	.	.	.	.	.	.	.	.	.	.	.	.	.	.	.	.	.	.
8G#X\	.	8b 8e/	.	8r	.	.	.	.	.	.	.	.	.	.	.	.	.	.	.	.
8G#X\	.	8b 8e/	.	16bb\LL	.	.	.	.	.	.	.	.	.	.	.	.	.	.	.	.
.	.	.	.	(16aa\JJ	.	.	.	.	.	.	.	.	.	.	.	.	.	.	.	.
8G#X\	.	8b 8e/	.	16gg#X\LL	.	.	.	.	.	.	.	4b\	-vi-	.	4dd\	-vi-	.	.	.	.
.	.	.	.	16ff#\	.	.	.	.	.	.	.	.	.	.	.	.	.	.	.	.
8G#X\J	.	8b 8e/J	.	16ee\)	.	.	.	.	.	.	.	.	.	.	.	.	.	.	.	.
.	.	.	.	16dd\JJ	.	.	.	.	.	.	.	.	.	.	.	.	.	.	.	.
=44	=44	=44	=44	=44	=44	=44	=44	=44	=44	=44	=44	=44	=44	=44	=44	=44	=44	=44	=44	=44
4A\	.	4a/	.	4cc#\	.	.	.	.	.	.	.	4a\	-tas	.	4cc#\	-tas	.	.	.	.
4r	.	4r	.	(16cc#\LL	.	.	.	.	.	.	.	4r	.	.	4r	.	.	.	.	.
.	.	.	.	16a\	.	.	.	.	.	.	.	.	.	.	.	.	.	.	.	.
.	.	.	.	16b\	.	.	.	.	.	.	.	.	.	.	.	.	.	.	.	.
.	.	.	.	16cc#\JJ)	.	.	.	.	.	.	.	.	.	.	.	.	.	.	.	.
4r	.	4r	.	(16dd\LL	.	.	.	.	.	.	.	4r	.	.	4r	.	.	.	.	.
.	.	.	.	16ee\	.	.	.	.	.	.	.	.	.	.	.	.	.	.	.	.
.	.	.	.	16ff#\	.	.	.	.	.	.	.	.	.	.	.	.	.	.	.	.
.	.	.	.	16gg#X\JJ)	.	.	.	.	.	.	.	.	.	.	.	.	.	.	.	.
=45	=45	=45	=45	=45	=45	=45	=45	=45	=45	=45	=45	=45	=45	=45	=45	=45	=45	=45	=45	=45
!	!	!LO:LB:g=original	!	!LO:LB:g=original	!	!	!	!	!	!	!	!	!	!	!	!	!	!	!	!
!	!	!	!	!	!	!LO:N:vis=00	!	!	!LO:N:vis=00	!	!	!	!	!	!	!	!	!LO:N:vis=00	!LO:N:vis=00	!
8A\L	.	8cc#\L	.	4aa\	.	0.r	.	.	0.r	.	.	2cc#\	Um-	.	2ee\	um-	.	0.r	0.r	.
8A\	.	8cc#\	.	.	.	.	.	.	.	.	.	.	.	.	.	.	.	.	.	.
8A\	.	8cc#\	.	8r	.	.	.	.	.	.	.	.	.	.	.	.	.	.	.	.
8A\	.	8cc#\	.	(16ee\LL	.	.	.	.	.	.	.	.	.	.	.	.	.	.	.	.
.	.	.	.	16ff#\JJ)	.	.	.	.	.	.	.	.	.	.	.	.	.	.	.	.
8A\	.	8cc#\	.	8ee'\L	.	.	.	.	.	.	.	4cc#\	-bram	.	4ee\	-bram	.	.	.	.
8A\J	.	8cc#\J	.	8ee'\J	.	.	.	.	.	.	.	.	.	.	.	.	.	.	.	.
=46	=46	=46	=46	=46	=46	=46	=46	=46	=46	=46	=46	=46	=46	=46	=46	=46	=46	=46	=46	=46
8Gn\L	.	8cc#\L	.	4ee\	.	.	.	.	.	.	.	2cc#\	fu-	.	2ee\	fu-	.	.	.	.
8Gn\	.	8cc#\	.	.	.	.	.	.	.	.	.	.	.	.	.	.	.	.	.	.
8Gn\	.	8cc#\	.	8r	.	.	.	.	.	.	.	.	.	.	.	.	.	.	.	.
8Gn\	.	8cc#\	.	(16ee\LL	.	.	.	.	.	.	.	.	.	.	.	.	.	.	.	.
.	.	.	.	16ff#\JJ)	.	.	.	.	.	.	.	.	.	.	.	.	.	.	.	.
8Gn\	.	8cc#\	.	8ee'\L	.	.	.	.	.	.	.	4cc#\	-gat	.	4ee\	-gat	.	.	.	.
8Gn\J	.	8cc#\J	.	8ee'\J	.	.	.	.	.	.	.	.	.	.	.	.	.	.	.	.
*	*	*Xtremolo	*	*	*	*	*	*	*	*	*	*	*	*	*	*	*	*	*	*
=47	=47	=47	=47	=47	=47	=47	=47	=47	=47	=47	=47	=47	=47	=47	=47	=47	=47	=47	=47	=47
8F#\L	.	8cc#\L	.	4aa#X\	.	.	.	.	.	.	.	2cc#\	ve-	.	2ee\	ve-	.	.	.	.
8F#\	.	8cc#\	.	.	.	.	.	.	.	.	.	.	.	.	.	.	.	.	.	.
8F#\	.	8a#X\	.	8r	.	.	.	.	.	.	.	.	.	.	.	.	.	.	.	.
8F#\	.	8a#\	.	(16ff#\LL	.	.	.	.	.	.	.	.	.	.	.	.	.	.	.	.
.	.	.	.	16gg\JJ)	.	.	.	.	.	.	.	.	.	.	.	.	.	.	.	.
8F#\	.	8a#\	.	8ff#'\L	.	.	.	.	.	.	.	4cc#\	-ri-	.	4ee\	-ri-	.	.	.	.
8F#\J	.	8a#\J	.	8ff#'\J	.	.	.	.	.	.	.	.	.	.	.	.	.	.	.	.
=48	=48	=48	=48	=48	=48	=48	=48	=48	=48	=48	=48	=48	=48	=48	=48	=48	=48	=48	=48	=48
*	*	*tremolo	*	*	*	*	*	*	*	*	*	*	*	*	*	*	*	*	*	*
8B\L	.	8b\L	.	4bb\	.	.	.	.	.	.	.	4b\	-tas	.	4dd\	-tas	.	.	.	.
8B\	.	8b\	.	.	.	.	.	.	.	.	.	.	.	.	.	.	.	.	.	.
8B\	.	8b\	.	8r	.	.	.	.	.	.	.	4r	.	.	4r	.	.	.	.	.
8B\J	.	8b\	.	(16ff#\LL	.	.	.	.	.	.	.	.	.	.	.	.	.	.	.	.
.	.	.	.	16gg\JJ)	.	.	.	.	.	.	.	.	.	.	.	.	.	.	.	.
*Xtremolo	*	*	*	*	*	*	*	*	*	*	*	*	*	*	*	*	*	*	*	*
8d\L	.	8b\	.	8ff#'\L	.	.	.	.	.	.	.	4r	.	.	4r	.	.	.	.	.
8d\J	.	8b\J	.	8ff#'\J	.	.	.	.	.	.	.	.	.	.	.	.	.	.	.	.
=49	=49	=49	=49	=49	=49	=49	=49	=49	=49	=49	=49	=49	=49	=49	=49	=49	=49	=49	=49	=49
!LO:LB:g=original	!	!	!	!	!	!	!	!	!	!	!	!LO:LB:g=original	!	!	!LO:LB:g=original	!	!	!	!	!
!	!	!	!	!	!	!LO:N:vis=00	!	!	!LO:N:vis=00	!	!	!	!	!	!	!	!	!LO:N:vis=00	!LO:N:vis=00	!
8e\L	.	8b\L	.	4gg\	.	0.r	.	.	0.r	.	.	4ee\	no-	.	4gg\	No-	.	0.r	0.r	.
8e\	.	8b\	.	.	.	.	.	.	.	.	.	.	.	.	.	.	.	.	.	.
8d\	.	8b\	.	8r	.	.	.	.	.	.	.	4dd\	-ctem	.	4ff#\	-ctem	.	.	.	.
8d\	.	8b\	.	(16ff#\LL	.	.	.	.	.	.	.	.	.	.	.	.	.	.	.	.
.	.	.	.	16gg\JJ)	.	.	.	.	.	.	.	.	.	.	.	.	.	.	.	.
8d\	.	8b\	.	8ff#'\L	.	.	.	.	.	.	.	4r	.	.	4r	.	.	.	.	.
8d\J	.	8b\J	.	8ff#'\J	.	.	.	.	.	.	.	.	.	.	.	.	.	.	.	.
=50	=50	=50	=50	=50	=50	=50	=50	=50	=50	=50	=50	=50	=50	=50	=50	=50	=50	=50	=50	=50
*	*	*	*	*	*	*	*	*	*	*	*	*	*ij	*	*	*	*	*	*	*
8c#\L	.	8b\L	.	4ee\	.	.	.	.	.	.	.	4cc#\	no-	.	4ee\	no-	.	.	.	.
8c#\J	.	8b\	.	.	.	.	.	.	.	.	.	.	.	.	.	.	.	.	.	.
*tremolo	*	*	*	*	*	*	*	*	*	*	*	*	*	*	*	*	*	*	*	*
8B\L	.	8b\	.	8r	.	.	.	.	.	.	.	4b\	-ctem	.	4dd\	-ctem	.	.	.	.
*	*	*	*	*	*	*	*	*	*	*	*	*	*Xij	*	*	*	*	*	*	*
8B\	.	8b\	.	(16dd\LL	.	.	.	.	.	.	.	.	.	.	.	.	.	.	.	.
.	.	.	.	16ee\JJ)	.	.	.	.	.	.	.	.	.	.	.	.	.	.	.	.
8B\	.	8b\	.	8dd'\L	.	.	.	.	.	.	.	4r	.	.	4r	.	.	.	.	.
8B\J	.	8b\J	.	8dd'\J	.	.	.	.	.	.	.	.	.	.	.	.	.	.	.	.
*Xtremolo	*	*	*	*	*	*	*	*	*	*	*	*	*	*	*	*	*	*	*	*
=51	=51	=51	=51	=51	=51	=51	=51	=51	=51	=51	=51	=51	=51	=51	=51	=51	=51	=51	=51	=51
!LO:TX:a:t=P:problem:mixed beam	!	!	!	!	!	!	!	!	!	!	!	!	!	!	!	!	!	!	!	!
8E\L	.	8b\L	.	(8.cc#\L	.	.	.	.	.	.	.	8g\	Lux	.	8.cc#\	Lux	.	.	.	.
8E\	.	8b\	.	.	.	.	.	.	.	.	.	8g\	e-	.	.	.	.	.	.	.
.	.	.	.	32dd\LL	.	.	.	.	.	.	.	.	.	.	16ee\	e-	.	.	.	.
.	.	.	.	32ee\JJJ)	.	.	.	.	.	.	.	.	.	.	.	.	.	.	.	.
8F#\	.	8b\	.	4dd\	.	.	.	.	.	.	.	4f#\	-li-	.	4dd\	-li-	.	.	.	.
8F#\	.	8b\J	.	.	.	.	.	.	.	.	.	.	.	.	.	.	.	.	.	.
*	*	*Xtremolo	*	*	*	*	*	*	*	*	*	*	*	*	*	*	*	*	*	*
8FF#/	.	8a#X\L	.	4cc#\	.	.	.	.	.	.	.	4a#X\	-mi-	.	4cc#\	-mi-	.	.	.	.
8FF#/J	.	8a#\J	.	.	.	.	.	.	.	.	.	.	.	.	.	.	.	.	.	.
=52	=52	=52	=52	=52	=52	=52	=52	=52	=52	=52	=52	=52	=52	=52	=52	=52	=52	=52	=52	=52
!	!	!	!	!LO:LB:g=original	!	!	!	!	!	!	!	!	!	!	!	!	!	!	!	!
!LO:TX:a:t=P:problem:mixed beam	!	!	!	!	!	!	!	!	!	!	!	!	!	!	!	!	!	!	!	!
8BB'>/L	.	8b'/L	.	8b'\L	f	.	.	.	.	.	.	4b\	-nat	.	4b\	-nat	.	.	.	.
8B'>\	.	8b'/	f	8b'\J	.	.	.	.	.	.	.	.	.	.	.	.	.	.	.	.
!	!LO:DY:t=for	!	!	!	!	!	!	!	!	!	!	!	!	!	!	!	!	!	!	!
8A'>\	f	8an'/	.	8a'/L	.	.	.	.	.	.	.	4r	.	.	4r	.	.	.	.	.
8G'>\	.	8g'/	.	8g'/	.	.	.	.	.	.	.	.	.	.	.	.	.	.	.	.
8F#'>\	.	8f#'/	.	8f#'/	.	.	.	.	.	.	.	4r	.	.	4r	.	.	.	.	.
8E'>\J	.	8e'/J	.	8e'/J	.	.	.	.	.	.	.	.	.	.	.	.	.	.	.	.
=53	=53	=53	=53	=53	=53	=53	=53	=53	=53	=53	=53	=53	=53	=53	=53	=53	=53	=53	=53	=53
!	!	!	!	!	!	!	!	!	!	!	!	!	!	!	!	!	!	!LO:LB:g=original	!	!
8D\L	.	8d'/L	.	8d/L	.	2.r	.	.	2.r	.	.	2.r	.	.	2.r	.	.	8d/L	8dd\L	.
16F#\L	.	(16f#/L	.	16f#/L	.	.	.	.	.	.	.	.	.	.	.	.	.	16f#/L	16ff#\L	.
16D\JJ	.	16d/JJ)	.	16d/JJ	.	.	.	.	.	.	.	.	.	.	.	.	.	16d/JJ	16dd\JJ	.
.	.	.	.	.	.	.	.	.	.	.	.	.	.	.	.	.	.	.	.	f
*tremolo	*	*	*	*	*	*	*	*	*	*	*	*	*	*	*	*	*	*	*	*
!LO:TX:a:t=P:problem:4 kropki nad nutą	!	!	!	!	!	!	!	!	!	!	!	!	!	!	!	!	!	!	!	!
8A'\L	.	8a/L	.	8a'/L	.	.	.	.	.	.	.	.	.	.	.	.	.	8a/L	8aa\L	.
8A'\	.	8a/	.	8a'/	.	.	.	.	.	.	.	.	.	.	.	.	.	8a/	8aa\	.
8A'\	.	8a/	.	8a'/	.	.	.	.	.	.	.	.	.	.	.	.	.	8a/	8aa\	.
8A'\J	.	8a/J	.	8a'/J	.	.	.	.	.	.	.	.	.	.	.	.	.	8a/J	8aa\J	.
=54	=54	=54	=54	=54	=54	=54	=54	=54	=54	=54	=54	=54	=54	=54	=54	=54	=54	=54	=54	=54
!	!	!LO:LB:g=original	!	!	!	!	!	!	!LO:LB:g=original	!	!	!	!	!	!	!	!	!	!	!
!	!LO:DY:t=po&colon;	!	!	!	!	!	!	!	!	!	!	!	!	!	!	!	!	!	!	!
8A\L	p	4a/	p	(4a\	.	4r	.	.	4r	.	.	4r	.	.	4r	.	.	4a/	4aa\	.
8A\	.	.	.	.	.	.	.	.	.	.	.	.	.	.	.	.	.	.	.	.
8A\	.	4f#/	.	4dd\	p	4D\	in	.	4d\	in	.	4a\	in	.	4ff#\	in	.	4r	4r	.
8A\	.	.	.	.	.	.	.	.	.	.	.	.	.	.	.	.	.	.	.	.
8A\	.	4dd\	.	4ff#\)	.	4D\	hač	.	4d\	hač	.	4a\	hač	.	4ff#\	hač	.	4r	4r	.
8A\J	.	.	.	.	.	.	.	.	.	.	.	.	.	.	.	.	.	.	.	.
=55	=55	=55	=55	=55	=55	=55	=55	=55	=55	=55	=55	=55	=55	=55	=55	=55	=55	=55	=55	=55
!LO:LB:g=original	!	!	!	!	!	!	!	!	!	!	!	!LO:LB:g=original	!	!	!	!	!	!	!LO:LB:g=original	!
!	!	!LO:TX:a:Bi:t=t	!	!LO:TX:a:Bi:t=t	!	!	!	!	!	!	!	!	!	!	!	!	!	!LO:TX:a:t=1	!	!
8A\L	.	8.dd\L	.	8.ff#\L	.	2.A\	Men-	.	4d\	Men-	.	2.a\	Men-	.	4ff#\	Men-	.	2.r	2.r	.
8A\	.	.	.	.	.	.	.	.	.	.	.	.	.	.	.	.	.	.	.	.
.	.	32cc#\LL	.	32ee\LL	.	.	.	.	.	.	.	.	.	.	.	.	.	.	.	.
.	.	32dd\JJJ	.	32ff#\JJJ	.	.	.	.	.	.	.	.	.	.	.	.	.	.	.	.
!	!	!LO:TX:a:t=P:problem:mixed beam	!	!	!	!	!	!	!	!	!	!	!	!	!	!	!	!	!	!
8A\	.	(8ee\L	.	(8gg\L	.	.	.	.	2c#\	.	.	.	.	.	2ee\	.	.	.	.	.
8A\	.	8g/	.	8ee\)	.	.	.	.	.	.	.	.	.	.	.	.	.	.	.	.
8A\	.	8f#/	.	(8dd\	.	.	.	.	.	.	.	.	.	.	.	.	.	.	.	.
8A\J	.	8e/J)	.	8cc#\J)	.	.	.	.	.	.	.	.	.	.	.	.	.	.	.	.
=56	=56	=56	=56	=56	=56	=56	=56	=56	=56	=56	=56	=56	=56	=56	=56	=56	=56	=56	=56	=56
!	!	!	!	!	!	!	!	!	!	!	!	!	!	!	!LO:LB:g=original	!	!	!	!	!
!	!	!	!	!	!LO:DY:rj	!	!	!	!	!	!	!	!	!	!	!	!	!	!	!
8D\L	.	8d/L	f	8d/L	f	4D\	-sae	.	4d\	-sae	.	4a\	-sae	.	4ff#\	-să	.	8d/L	8dd\L	.
16F#\L	.	16f#/L	.	16f#/L	.	.	.	.	.	.	.	.	.	.	.	.	.	16f#/L	16ff#\L	.
!	!LO:DY:t=for	!	!	!	!	!	!	!	!	!	!	!	!	!	!	!	!	!	!	!
16D\JJ	f	16d/JJ	.	16d/JJ	.	.	.	.	.	.	.	.	.	.	.	.	.	16d/JJ	16dd\JJ	.
8A\L	.	8a'/L	.	8a'/L	.	4r	.	.	4r	.	.	4r	.	.	4r	.	.	8a/L	8aa\L	.
8A\	.	8a'/	.	8a'/	.	.	.	.	.	.	.	.	.	.	.	.	.	8a/	8aa\	.
8A\	.	8a'/	.	8a'/	.	4r	.	.	4r	.	.	4r	.	.	4r	.	.	8a/	8aa\	.
8A\J	.	8a'/J	.	8a'/J	.	.	.	.	.	.	.	.	.	.	.	.	.	8a/J	8aa\J	.
=57	=57	=57	=57	=57	=57	=57	=57	=57	=57	=57	=57	=57	=57	=57	=57	=57	=57	=57	=57	=57
!	!	!	!	!LO:LB:g=original	!	!LO:LB:g=original	!	!	!	!	!	!	!	!	!	!	!	!	!	!
!	!LO:DY:t=po.	!	!	!	!	!	!	!	!	!	!	!	!	!	!	!	!	!	!	!
8A\L	p	(4a\	.	(4a\	.	4r	.	.	4r	.	.	4r	.	.	4r	.	.	4a/	4aa\	.
!	!	!	!	!	!LO:DY:t=po.	!	!	!	!	!	!	!	!	!	!	!	!	!	!	!
8A\	.	.	.	.	p	.	.	.	.	.	.	.	.	.	.	.	.	.	.	.
!	!	!	!LO:DY:t=po.	!	!	!	!	!	!	!	!	!	!	!	!	!	!	!	!	!
8A\	.	4dd\	p	4ff#\)	.	4D\	no-	.	4d\	no-	.	4a\	no-	.	4ff#\	no-	.	4r	4r	.
8A\	.	.	.	.	.	.	.	.	.	.	.	.	.	.	.	.	.	.	.	.
8A\	.	4ff#\)	.	4aa\	.	4D\	-vi	.	4d\	-vi	.	4a\	-vi	.	4ff#\	-vi	.	4r	4r	.
8A\J	.	.	.	.	.	.	.	.	.	.	.	.	.	.	.	.	.	.	.	.
=58	=58	=58	=58	=58	=58	=58	=58	=58	=58	=58	=58	=58	=58	=58	=58	=58	=58	=58	=58	=58
!	!	!LO:TX:a:Bi:t=t	!	!LO:TX:a:Bi:t=t	!	!	!	!	!	!	!	!	!	!	!	!	!	!LO:TX:a:t=1	!	!
8A\L	.	8.ff#\L	.	(8.aa\L	.	2.A\	Re-	.	4d\	Re-	.	2.a\	Re-	.	4ff#\	Re-	.	2.r	2.r	.
8A\	.	.	.	.	.	.	.	.	.	.	.	.	.	.	.	.	.	.	.	.
.	.	32ee\LL	.	32gg\LL	.	.	.	.	.	.	.	.	.	.	.	.	.	.	.	.
.	.	32ff#\JJJ	.	32aa\JJJ)	.	.	.	.	.	.	.	.	.	.	.	.	.	.	.	.
8A\	.	(8gg\L	.	8bb\L	.	.	.	.	2c#\	.	.	.	.	.	2ee\	.	.	.	.	.
8A\	.	8ee\J)	.	(8gg\	.	.	.	.	.	.	.	.	.	.	.	.	.	.	.	.
8A\	.	(8dd\L	.	(8ff#\)	.	.	.	.	.	.	.	.	.	.	.	.	.	.	.	.
8A\J	.	8cc#\J)	.	8ee\J)	.	.	.	.	.	.	.	.	.	.	.	.	.	.	.	.
=59	=59	=59	=59	=59	=59	=59	=59	=59	=59	=59	=59	=59	=59	=59	=59	=59	=59	=59	=59	=59
*	*	*4\right	*	*	*	*	*	*	*	*	*	*	*	*	*	*	*	*	*	*
8D\L	.	4dd 4f#\	.	8dd\L	f	4D\	-gis	.	4d\	-gis	.	4a\	-gis	.	4ff#\	-gis	.	4f#/	4dd\	.
16F#\L	.	.	f	16ff#\L	.	.	.	.	.	.	.	.	.	.	.	.	.	.	.	.
!	!LO:DY:t=for	!	!	!	!	!	!	!	!	!	!	!	!	!	!	!	!	!	!	!
16D\JJ	f	.	.	16dd\JJ	.	.	.	.	.	.	.	.	.	.	.	.	.	.	.	.
4A\	.	4ee 4a\	.	8aa'\L	.	4r	.	.	4r	.	.	4r	.	.	4r	.	.	4a/	4ee\	.
.	.	.	.	8aa'\	.	.	.	.	.	.	.	.	.	.	.	.	.	.	.	.
8r	.	8r	.	8aa'\	.	4r	.	.	4r	.	.	4r	.	.	4r	.	.	4dd/	4ff#\	.
8d\	.	8ff#\	.	8aa'\J	.	.	.	.	.	.	.	.	.	.	.	.	.	.	.	.
=60	=60	=60	=60	=60	=60	=60	=60	=60	=60	=60	=60	=60	=60	=60	=60	=60	=60	=60	=60	=60
!	!	!LO:LB:g=original	!	!	!	!	!	!	!	!	!	!	!	!	!	!	!	!	!	!
*	*	*	*	*tremolo	*	*	*	*	*	*	*	*	*	*	*	*	*	*	*	*
8c#\L	.	16ee\LL	.	8aa\L	.	2A\	no-	.	2c#\	no-	.	2a\	no-	.	2ee\	no-	.	2.a/	2.ee\	.
.	.	16ee\	.	.	.	.	.	.	.	.	.	.	.	.	.	.	.	.	.	.
8B\	.	16dd\	.	8aa\	.	.	.	.	.	.	.	.	.	.	.	.	.	.	.	.
.	.	16dd\JJ	.	.	.	.	.	.	.	.	.	.	.	.	.	.	.	.	.	.
8A\	.	16cc#\LL	.	8aa\	.	.	.	.	.	.	.	.	.	.	.	.	.	.	.	.
.	.	16cc#\	.	.	.	.	.	.	.	.	.	.	.	.	.	.	.	.	.	.
8G\	.	16b\	.	8aa\	.	.	.	.	.	.	.	.	.	.	.	.	.	.	.	.
.	.	16b\JJ	.	.	.	.	.	.	.	.	.	.	.	.	.	.	.	.	.	.
8F#\	.	16a\LL	.	8aa\	.	4A\	-vum	.	4c#\	-vum	.	4a\	-vum	.	4ee\	-vum	.	.	.	.
.	.	16a\	.	.	.	.	.	.	.	.	.	.	.	.	.	.	.	.	.	.
8E\J	.	16g\	.	8aa\J	.	.	.	.	.	.	.	.	.	.	.	.	.	.	.	.
.	.	16g\JJ	.	.	.	.	.	.	.	.	.	.	.	.	.	.	.	.	.	.
=61	=61	=61	=61	=61	=61	=61	=61	=61	=61	=61	=61	=61	=61	=61	=61	=61	=61	=61	=61	=61
!	!	!	!	!	!	!	!	!	!LO:LB:g=original	!	!	!	!	!	!	!	!	!	!	!
8D\L	.	4dd 4f#\	.	16aa\LL	.	4d\	Pas-	.	4d\	Paš-	.	4a\	Paš-	.	4ff#\	Pas-	.	4f#/	4dd\	.
.	.	.	.	16bb\	.	.	.	.	.	.	.	.	.	.	.	.	.	.	.	.
16F#\L	.	.	.	16ccc#\	.	.	.	.	.	.	.	.	.	.	.	.	.	.	.	.
16D\JJ	.	.	.	16ddd\JJ	.	.	.	.	.	.	.	.	.	.	.	.	.	.	.	.
4A\	.	4ee 4a\	.	8aa\L	.	4A\	-ča	.	4c#\	-ca	.	4a\	-ca	.	4ee\	-ča	.	4a/	4ee\	.
.	.	.	.	8aa\	.	.	.	.	.	.	.	.	.	.	.	.	.	.	.	.
8r	.	8r	.	8aa\	.	4r	.	.	4r	.	.	4r	.	.	4r	.	.	4dd/	4ff#\	.
8d\	.	8ff#\	.	8aa\J	.	.	.	.	.	.	.	.	.	.	.	.	.	.	.	.
=62	=62	=62	=62	=62	=62	=62	=62	=62	=62	=62	=62	=62	=62	=62	=62	=62	=62	=62	=62	=62
!LO:LB:g=original	!	!	!	!	!	!	!	!	!	!	!	!	!	!	!	!	!	!LO:LB:g=original	!	!
8c#\L	.	16ee\LL	.	8aa\L	.	2A\	no-	.	2c#\	no-	.	2a\	no-	.	2ee\	no-	.	2.a/	2.ee\	.
.	.	16ee\	.	.	.	.	.	.	.	.	.	.	.	.	.	.	.	.	.	.
8B\	.	16dd\	.	8aa\	.	.	.	.	.	.	.	.	.	.	.	.	.	.	.	.
.	.	16dd\JJ	.	.	.	.	.	.	.	.	.	.	.	.	.	.	.	.	.	.
8A\	.	16cc#\LL	.	8aa\	.	.	.	.	.	.	.	.	.	.	.	.	.	.	.	.
.	.	16cc#\	.	.	.	.	.	.	.	.	.	.	.	.	.	.	.	.	.	.
8G\	.	16b\	.	8aa\	.	.	.	.	.	.	.	.	.	.	.	.	.	.	.	.
.	.	16b\JJ	.	.	.	.	.	.	.	.	.	.	.	.	.	.	.	.	.	.
8F#\	.	16a\LL	.	8aa\	.	4A\	-vum	.	4c#\	-vum	.	4a\	-vum	.	4ee\	-vum	.	.	.	.
.	.	16a\	.	.	.	.	.	.	.	.	.	.	.	.	.	.	.	.	.	.
8E\J	.	16g\	.	8aa\J	.	.	.	.	.	.	.	.	.	.	.	.	.	.	.	.
.	.	16g\JJ	.	.	.	.	.	.	.	.	.	.	.	.	.	.	.	.	.	.
=63	=63	=63	=63	=63	=63	=63	=63	=63	=63	=63	=63	=63	=63	=63	=63	=63	=63	=63	=63	=63
!	!	!	!	!	!	!	!	!	!	!	!	!LO:LB:g=original	!	!	!	!	!	!	!	!
8D\L	.	(8d/L	.	8aa\L	.	4d\	Pas-	.	4d\	Paš-	.	4a\	Paš-	.	4ff#\	Paš-	.	8d/L	8dd\L	.
16F#\L	.	16f#/L	.	8aa\	.	.	.	.	.	.	.	.	.	.	.	.	.	16f#/L	16ff#\L	.
16D\JJ	.	16d/JJ)	.	.	.	.	.	.	.	.	.	.	.	.	.	.	.	16d/JJ	16dd\JJ	.
8A\L	.	8a'/L	.	8aa\	.	4A\	-ča	.	4c#\	-ca	.	4a\	-ca	.	4ee\	-ca,	.	8a/L	8aa\L	.
8A\	.	8a'/	.	8aa\	.	.	.	.	.	.	.	.	.	.	.	.	.	8a/	8aa\	.
8A\	.	8a'/	.	8aa\	.	4r	.	.	4r	.	.	4r	.	.	4r	.	.	8a/	8aa\	.
8A\J	.	8a'/J	.	8aa\J	.	.	.	.	.	.	.	.	.	.	.	.	.	8a/J	8aa\J	.
*	*	*	*	*Xtremolo	*	*	*	*	*	*	*	*	*	*	*	*	*	*	*	*
=64	=64	=64	=64	=64	=64	=64	=64	=64	=64	=64	=64	=64	=64	=64	=64	=64	=64	=64	=64	=64
!	!	!LO:LB:g=original	!	!LO:LB:g=original	!	!	!	!	!	!	!	!	!	!	!LO:LB:g=original	!	!	!	!	!
!	!	!	!	!	!	!LO:N:vis=00	!	!	!	!	!	!	!	!	!	!	!	!	!	!
4A\	.	4a/	.	4aa\	.	0.r	.	.	4r	.	.	2.r	.	.	4r	.	.	4a/	4aa\	.
!	!	!	!	!	!	!	!	!	!	!	!LO:DY:a	!	!	!	!	!	!	!	!	!
4r	.	4r	.	4r	.	.	.	.	4c#\	in	p	.	.	.	4ee\	in	.	4r	4r	.
4r	.	4r	.	4r	.	.	.	.	4c#\	hač	.	.	.	.	4ee\	hač	.	4r	4r	.
=65	=65	=65	=65	=65	=65	=65	=65	=65	=65	=65	=65	=65	=65	=65	=65	=65	=65	=65	=65	=65
!	!	!	!	!	!	!	!	!	!	!	!	!	!	!	!	!	!	!	!LO:LB:g=original	!
!	!	!LO:N:vis=00	!	!LO:N:vis=00	!	!	!	!	!	!	!	!	!	!	!	!	!	!LO:N:vis=00	!LO:N:vis=00	!
2.r	.	0.r	.	0.r	.	.	.	.	(4c#\	Men-	.	4r	.	p	4ee\	Men-	.	0.r	0.r	.
.	.	.	.	.	.	.	.	.	4B\)	.	.	4a\	in	.	(4dd\	.	.	.	.	.
.	.	.	.	.	.	.	.	.	4A\	-sae	.	4a\	hač	.	4cc#\)	-să	.	.	.	.
=66	=66	=66	=66	=66	=66	=66	=66	=66	=66	=66	=66	=66	=66	=66	=66	=66	=66	=66	=66	=66
4AA/	.	.	.	.	.	.	.	.	4r	.	.	2a\	Men-	.	4r	.	.	.	.	.
4r	.	.	.	.	.	.	.	.	4e'\	no-	.	.	.	.	4gg\	no-	.	.	.	.
4r	.	.	.	.	.	.	.	.	4e'\	-vi	.	4a\	-sae	.	4gg\	-vi	.	.	.	.
=67	=67	=67	=67	=67	=67	=67	=67	=67	=67	=67	=67	=67	=67	=67	=67	=67	=67	=67	=67	=67
!	!	!	!	!	!	!	!	!	!LO:LB:g=original	!	!	!	!	!	!	!	!	!	!	!
!LO:N:vis=0	!	!	!	!	!	!	!	!	!	!	!	!	!	!	!	!	!	!	!	!
1.r	.	.	.	.	.	.	.	.	(4e\	Re-	.	2a\	no-	.	4gg\	Re-	.	.	.	.
.	.	.	.	.	.	.	.	.	4d\)	.	.	.	.	.	4ff#\	.	.	.	.	.
.	.	.	.	.	.	.	.	.	4c#\	-gis	.	4a\	-vum	.	4ee\	-gis	.	.	.	.
=68	=68	=68	=68	=68	=68	=68	=68	=68	=68	=68	=68	=68	=68	=68	=68	=68	=68	=68	=68	=68
!	!	!	!	!	!	!LO:LB:g=original	!	!	!	!	!	!	!	!	!	!	!	!	!	!
!	!	!	!	!	!	!	!	!	!LO:TX:a:Bi:t=t.	!	!	!	!	!	!	!	!	!	!	!
.	.	.	.	.	.	4A\	no-	.	8.d\L	no-	.	2a\	Pa-	.	8.ff#\L	no-	.	.	.	.
.	.	.	.	.	.	.	.	.	32c#\LL	.	.	.	.	.	32ee\LL	.	.	.	.	.
.	.	.	.	.	.	.	.	.	32d\JJJ	.	.	.	.	.	32ff#\JJJ	.	.	.	.	.
.	.	.	.	.	.	4c#\	-vum	.	4e\	.	.	.	.	.	4gg\	.	.	.	.	.
.	.	.	.	.	.	4d\	.	.	4d\	-vum	.	4a\	-sca	.	4ff#\	-vum	.	.	.	.
=69	=69	=69	=69	=69	=69	=69	=69	=69	=69	=69	=69	=69	=69	=69	=69	=69	=69	=69	=69	=69
2.r	.	4r	.	4r	f	4A\	Pas-	.	4d\	Paš-	.	4a\	Pa-	.	4ff#\	Pas-	.	2.r	2.r	.
.	.	(16A/LL	.	(16a\LL	.	4AA/	-ča	.	4c#\	-ca	.	4a\	-sca	.	4ee\	-ča	.	.	.	.
.	.	16B/)	.	16b\)	.	.	.	.	.	.	.	.	.	.	.	.	.	.	.	.
.	.	(16A/	.	(16a\	.	.	.	.	.	.	.	.	.	.	.	.	.	.	.	.
.	.	16B/JJ)	.	16b\JJ)	.	.	.	.	.	.	.	.	.	.	.	.	.	.	.	.
.	.	(16c#/LL	.	(16cc#\LL	.	4r	.	.	4r	.	.	4r	.	.	4r	.	.	.	.	.
.	.	16d/)	.	16dd\)	.	.	.	.	.	.	.	.	.	.	.	.	.	.	.	.
.	.	(16c#/	.	(16cc#\	.	.	.	.	.	.	.	.	.	.	.	.	.	.	.	.
.	.	16d/JJ)	.	16dd\JJ)	.	.	.	.	.	.	.	.	.	.	.	.	.	.	.	.
=70	=70	=70	=70	=70	=70	=70	=70	=70	=70	=70	=70	=70	=70	=70	=70	=70	=70	=70	=70	=70
!	!	!	!	!	!	!	!	!	!	!	!	!LO:LB:g=original	!	!	!	!	!	!	!	!
*	*	*tremolo	*	*	*	*	*	*	*	*	*	*	*	*	*	*	*	*tremolo	*tremolo	*
!	!	!	!	!	!	!	!	!	!	!	!	!	!	!LO:DY:rj	!	!	!	!	!	!
8c#X\L	f	8e 8A/L	.	8ee\L	.	2A\	ve-	.	2c#\	ve-	.	2a\	ve-	f	2ee\	ve-	.	8ee\L	8a/L	.
8c#X\	.	8e 8A/	.	8ggJ 8a\	.	.	.	.	.	.	.	.	.	.	.	.	.	8ee\	8a/	.
*	*	*	*	*tremolo	*	*	*	*	*	*	*	*	*	*	*	*	*	*	*	*
8c#X\	.	8e 8A/	.	8gg 8a\L	.	.	.	.	.	.	.	.	.	.	.	.	.	8ee\	8a/	.
8c#X\	.	8e 8A/	.	8gg 8a\	.	.	.	.	.	.	.	.	.	.	.	.	.	8ee\	8a/	.
8c#X\	.	8e 8A/	.	8gg 8a\	.	4A\	-tus-	.	4c#\	-tus-	.	4a\	-tuſ-	.	4ee\	-tus-	.	8ee\	8a/	.
8c#X\J	.	8e 8A/J	.	8gg 8a\J	.	.	.	.	.	.	.	.	.	.	.	.	.	8ee\J	8a/J	.
*	*	*Xtremolo	*	*Xtremolo	*	*	*	*	*	*	*	*	*	*	*	*	*	*	*	*
=71	=71	=71	=71	=71	=71	=71	=71	=71	=71	=71	=71	=71	=71	=71	=71	=71	=71	=71	=71	=71
!	!	!	!	!	!	!	!	!	!	!	!	!	!	!	!LO:LB:g=original	!	!	!	!	!
4d\	.	4f# 4A/	.	4ff# 4a\	.	4d\	-ta-	.	4d\	-ta-	.	4a\	-ta-	.	4ff#\	-ta-	.	4ff#\	4dd\	.
4D/	.	16f#/LL	.	16ff#\LL	.	4D\	-tem	.	4d\	-tem	.	4a\	-tem	.	4ff#\	-tem	.	4r	4r	.
.	.	16d/	.	16dd\	.	.	.	.	.	.	.	.	.	.	.	.	.	.	.	.
.	.	16e/	.	16ee\	.	.	.	.	.	.	.	.	.	.	.	.	.	.	.	.
.	.	16f#/JJ	.	16ff#\JJ	.	.	.	.	.	.	.	.	.	.	.	.	.	.	.	.
4r	.	16g\LL	.	16gg\LL	.	4r	.	.	4r	.	.	4r	.	.	4r	.	.	4r	4r	.
.	.	16a\	.	16aa\	.	.	.	.	.	.	.	.	.	.	.	.	.	.	.	.
.	.	16b\	.	16bb\	.	.	.	.	.	.	.	.	.	.	.	.	.	.	.	.
.	.	16cc#\JJ	.	16ccc#\JJ	.	.	.	.	.	.	.	.	.	.	.	.	.	.	.	.
=72	=72	=72	=72	=72	=72	=72	=72	=72	=72	=72	=72	=72	=72	=72	=72	=72	=72	=72	=72	=72
!	!	!LO:TX:a:t=P:problem:mixed beam	!	!	!	!	!	!	!	!	!	!	!	!	!	!	!	!	!	!
8d\L	.	8dd\L	.	8ddd\L	.	2d\	fu-	.	2.d\	fu-	.	2.a\	fu-	.	2ff#\	fu-	.	8ff#\L	8dd\L	.
8d\	.	8f# 8A/	.	8ff#J 8a\	.	.	.	.	.	.	.	.	.	.	.	.	.	8ff#\	8dd\	.
*	*	*	*	*tremolo	*	*	*	*	*	*	*	*	*	*	*	*	*	*	*	*
8d\	.	8f# 8A/	.	8ff# 8a\L	.	.	.	.	.	.	.	.	.	.	.	.	.	8ff#\	8dd\	.
8d\	.	8f# 8A/	.	8ff# 8a\	.	.	.	.	.	.	.	.	.	.	.	.	.	8ff#\	8dd\	.
8d\	.	8f# 8A/	.	8ff# 8a\	.	4D\	.	.	.	.	.	.	.	.	4ff#\	-gat	.	8ff#\	8dd\	.
8d\J	.	8f#J 8A/	.	8ff# 8a\J	.	.	.	.	.	.	.	.	.	.	.	.	.	8ff#\J	8dd\J	.
*	*	*	*	*Xtremolo	*	*	*	*	*	*	*	*	*	*	*	*	*	*	*	*
=73	=73	=73	=73	=73	=73	=73	=73	=73	=73	=73	=73	=73	=73	=73	=73	=73	=73	=73	=73	=73
!LO:LB:g=original	!	!LO:LB:g=original	!	!LO:LB:g=original	!	!	!	!	!	!	!	!	!	!	!	!	!	!	!	!
4A\	.	4g 4A/	.	4ee 4a\	.	4A\	-gat	.	4c#\	-gat	.	4a\	-gat	.	4ee\	fu-	.	4ee\	4a/	.
4AA/	.	(16A/LL	.	(16a\LL	.	4r	.	.	4r	.	.	4r	.	.	4ee\	-gat	.	4r	4r	.
.	.	16B/)	.	16b\)	.	.	.	.	.	.	.	.	.	.	.	.	.	.	.	.
.	.	(16A/	.	(16a\	.	.	.	.	.	.	.	.	.	.	.	.	.	.	.	.
.	.	16B/JJ)	.	16b\JJ)	.	.	.	.	.	.	.	.	.	.	.	.	.	.	.	.
4r	.	(16c#/LL	.	(16cc#\LL	.	4r	.	.	4r	.	.	4r	.	.	4r	.	.	4r	4r	.
.	.	16d/)	.	16dd\)	.	.	.	.	.	.	.	.	.	.	.	.	.	.	.	.
.	.	(16c#/	.	(16cc#\	.	.	.	.	.	.	.	.	.	.	.	.	.	.	.	.
.	.	16d/JJ)	.	16dd\JJ)	.	.	.	.	.	.	.	.	.	.	.	.	.	.	.	.
=74	=74	=74	=74	=74	=74	=74	=74	=74	=74	=74	=74	=74	=74	=74	=74	=74	=74	=74	=74	=74
!	!	!	!	!	!	!	!	!	!LO:LB:g=original	!	!	!	!	!	!	!	!	!	!	!
*	*	*tremolo	*	*	*	*	*	*	*	*	*	*	*	*	*	*	*	*	*	*
8c#\L	.	8e 8A/L	.	8ee\L	.	2A\	ve-	.	2c#\	ve-	.	2a\	ve-	.	2ee\	ve-	.	8ee\L	8a/L	.
8c#\	.	8e 8A/	.	8ggJ 8a\	.	.	.	.	.	.	.	.	.	.	.	.	.	8ee\	8a/	.
*	*	*	*	*tremolo	*	*	*	*	*	*	*	*	*	*	*	*	*	*	*	*
8c#\	.	8e 8A/	.	8gg 8a\L	.	.	.	.	.	.	.	.	.	.	.	.	.	8ee\	8a/	.
8c#\	.	8e 8A/	.	8gg 8a\	.	.	.	.	.	.	.	.	.	.	.	.	.	8ee\	8a/	.
8c#\	.	8e 8A/	.	8gg 8a\	.	4A\	-ri-	.	4c#\	-ri-	.	4a\	-ri-	.	4ee\	-ri-	.	8ee\	8a/	.
8c#\J	.	8e 8A/J	.	8gg 8a\J	.	.	.	.	.	.	.	.	.	.	.	.	.	8ee\J	8a/J	.
*	*	*Xtremolo	*	*Xtremolo	*	*	*	*	*	*	*	*	*	*	*	*	*	*Xtremolo	*Xtremolo	*
=75	=75	=75	=75	=75	=75	=75	=75	=75	=75	=75	=75	=75	=75	=75	=75	=75	=75	=75	=75	=75
!	!	!	!	!	!	!LO:LB:g=original	!	!	!	!	!	!	!	!	!	!	!	!	!	!
4d\	.	4f# 4A/	.	4ff# 4a 4d/	.	4D\	-tas	.	4d\	-tas	.	4a\	-tas	.	4ff#\	-tas	.	4ff#\	4dd\	.
4D/	.	16dd\LL	.	16ff#\LL	.	4r	.	.	4r	.	.	4r	.	.	4r	.	.	4r	4r	.
.	.	16dd\	.	16ff#\	.	.	.	.	.	.	.	.	.	.	.	.	.	.	.	.
.	.	16ff#\	.	16ddd\	.	.	.	.	.	.	.	.	.	.	.	.	.	.	.	.
.	.	16ff#\JJ	.	16ddd\JJ	.	.	.	.	.	.	.	.	.	.	.	.	.	.	.	.
4r	.	16dd\LL	.	16ff#\LL	.	4r	.	.	4r	.	.	4r	.	.	4r	.	.	4r	4r	.
.	.	16dd\	.	16ff#\	.	.	.	.	.	.	.	.	.	.	.	.	.	.	.	.
.	.	16ff#\	.	16ddd\	.	.	.	.	.	.	.	.	.	.	.	.	.	.	.	.
.	.	16ff#\JJ	.	16ddd\JJ	.	.	.	.	.	.	.	.	.	.	.	.	.	.	.	.
=76	=76	=76	=76	=76	=76	=76	=76	=76	=76	=76	=76	=76	=76	=76	=76	=76	=76	=76	=76	=76
*	*	*tremolo	*	*	*	*	*	*	*	*	*	*	*	*	*	*	*	*	*	*
8G\L	.	16dd 16d/LL	.	16bb\LL	.	2G\	No-	.	2d\	no-	.	2g\	no-	.	2bb\	no-	.	2.dd\	2.d/	.
.	.	16dd 16d/	.	16bb\	.	.	.	.	.	.	.	.	.	.	.	.	.	.	.	.
8G\	.	16dd 16d/	.	16ddd\	.	.	.	.	.	.	.	.	.	.	.	.	.	.	.	.
.	.	16dd 16d/	.	16ddd\JJ	.	.	.	.	.	.	.	.	.	.	.	.	.	.	.	.
8G\	.	16dd 16d/	.	16bb\LL	.	.	.	.	.	.	.	.	.	.	.	.	.	.	.	.
.	.	16dd 16d/	.	16bb\	.	.	.	.	.	.	.	.	.	.	.	.	.	.	.	.
8G\J	.	16dd 16d/	.	16ddd\	.	.	.	.	.	.	.	.	.	.	.	.	.	.	.	.
.	.	16dd 16d/	.	16ddd\JJ	.	.	.	.	.	.	.	.	.	.	.	.	.	.	.	.
*Xtremolo	*	*	*	*	*	*	*	*	*	*	*	*	*	*	*	*	*	*	*	*
8F#\L	.	16dd 16d/	.	16aa\LL	.	4F#\	-ctem	.	4d\	-ctem	.	4f#\	-ctem	.	4aa\	-ctem	.	.	.	.
.	.	16dd 16d/	.	16aa\	.	.	.	.	.	.	.	.	.	.	.	.	.	.	.	.
8F#\J	.	16dd 16d/	.	16ddd\	.	.	.	.	.	.	.	.	.	.	.	.	.	.	.	.
.	.	16dd 16d/JJ	.	16ddd\JJ	.	.	.	.	.	.	.	.	.	.	.	.	.	.	.	.
=77	=77	=77	=77	=77	=77	=77	=77	=77	=77	=77	=77	=77	=77	=77	=77	=77	=77	=77	=77	=77
!	!	!	!	!	!	!	!	!	!	!	!	!	!	!	!	!	!	!LO:LB:g=original	!	!
*tremolo	*	*	*	*	*	*	*	*	*	*	*	*	*	*	*	*	*	*	*	*
8B\L	.	16dd 16d/LL	.	16gg\LL	.	2B\	Lux	.	2d\	Lux	.	2b\	lux	.	2gg\	Lux	.	2.dd\	2.d/	.
.	.	16dd 16d/	.	16gg\	.	.	.	.	.	.	.	.	.	.	.	.	.	.	.	.
8B\	.	16dd 16d/	.	16ddd\	.	.	.	.	.	.	.	.	.	.	.	.	.	.	.	.
.	.	16dd 16d/	.	16ddd\JJ	.	.	.	.	.	.	.	.	.	.	.	.	.	.	.	.
8B\	.	16dd 16d/	.	16gg\LL	.	.	.	.	.	.	.	.	.	.	.	.	.	.	.	.
.	.	16dd 16d/	.	16gg\	.	.	.	.	.	.	.	.	.	.	.	.	.	.	.	.
8B\J	.	16dd 16d/	.	16ddd\	.	.	.	.	.	.	.	.	.	.	.	.	.	.	.	.
.	.	16dd 16d/	.	16ddd\JJ	.	.	.	.	.	.	.	.	.	.	.	.	.	.	.	.
*Xtremolo	*	*	*	*	*	*	*	*	*	*	*	*	*	*	*	*	*	*	*	*
!	!	!	!	!LO:LB:g=original	!	!	!	!	!	!	!	!	!	!	!	!	!	!	!	!
8A\L	.	16dd 16d/	.	16ff#\LL	.	4A\	e-	.	4d\	e-	.	4a\	e-	.	4ff#\	e-	.	.	.	.
.	.	16dd 16d/	.	16ff#\	.	.	.	.	.	.	.	.	.	.	.	.	.	.	.	.
8A\J	.	16dd 16d/	.	16ddd\	.	.	.	.	.	.	.	.	.	.	.	.	.	.	.	.
.	.	16dd 16d/JJ	.	16ddd\JJ	.	.	.	.	.	.	.	.	.	.	.	.	.	.	.	.
=78	=78	=78	=78	=78	=78	=78	=78	=78	=78	=78	=78	=78	=78	=78	=78	=78	=78	=78	=78	=78
!	!	!	!	!	!	!	!	!	!	!	!	!LO:LB:g=original	!	!	!LO:LB:g=original	!	!	!	!	!
!	!	!	!	!	!	!	!	!	!	!	!	!	!	!	!	!	!	!LO:TX:a:t=P:problem:zamazany takt	!	!
*tremolo	*	*	*	*	*	*	*	*	*	*	*	*	*	*	*	*	*	*	*	*
8G\L	.	16dd 16d/LL	.	16bb\LL	.	4.G\	-li-	.	4.B\	-li-	.	4.g\	-li-	.	4.dd\	-li-	.	2.ryy	2.d/	.
.	.	16dd 16d/	.	16bb\	.	.	.	.	.	.	.	.	.	.	.	.	.	.	.	.
8G\	.	16dd 16d/	.	16ddd\	.	.	.	.	.	.	.	.	.	.	.	.	.	.	.	.
.	.	16dd 16d/	.	16ddd\JJ	.	.	.	.	.	.	.	.	.	.	.	.	.	.	.	.
8G\	.	16dd 16d/	.	16bb\LL	.	.	.	.	.	.	.	.	.	.	.	.	.	.	.	.
.	.	16dd 16d/	.	16bb\	.	.	.	.	.	.	.	.	.	.	.	.	.	.	.	.
8G\J	.	16dd 16d/	.	16ddd\	.	8G\	-mi-	.	8B\	-mi-	.	8g\	-mi-	.	8dd\	-mi-	.	.	.	.
.	.	16dd 16d/	.	16ddd\JJ	.	.	.	.	.	.	.	.	.	.	.	.	.	.	.	.
*Xtremolo	*	*	*	*	*	*	*	*	*	*	*	*	*	*	*	*	*	*	*	*
8F#\L	.	16dd 16d/	.	16aa\LL	.	4F#\	-nat	.	4A\	-nat	.	4f#\	-nat	.	4dd\	-nat	.	.	.	.
.	.	16dd 16d/	.	16aa\	.	.	.	.	.	.	.	.	.	.	.	.	.	.	.	.
8F#\J	.	16dd 16d/	.	16ddd\	.	.	.	.	.	.	.	.	.	.	.	.	.	.	.	.
.	.	16dd 16d/JJ	.	16ddd\JJ	.	.	.	.	.	.	.	.	.	.	.	.	.	.	.	.
=79	=79	=79	=79	=79	=79	=79	=79	=79	=79	=79	=79	=79	=79	=79	=79	=79	=79	=79	=79	=79
*tremolo	*	*	*	*	*	*	*	*	*	*	*	*	*	*	*	*	*	*	*	*
8B\L	.	16dd 16d/LL	.	16gg\LL	.	2B\	No-	.	2g\	no-	.	2b\	no-	.	2dd\	no-	.	2.dd\	2.d/	.
.	.	16dd 16d/	.	16gg\	.	.	.	.	.	.	.	.	.	.	.	.	.	.	.	.
8B\	.	16dd 16d/	.	16ddd\	.	.	.	.	.	.	.	.	.	.	.	.	.	.	.	.
.	.	16dd 16d/	.	16ddd\JJ	.	.	.	.	.	.	.	.	.	.	.	.	.	.	.	.
8B\	.	16dd 16d/	.	16gg\LL	.	.	.	.	.	.	.	.	.	.	.	.	.	.	.	.
.	.	16dd 16d/	.	16gg\	.	.	.	.	.	.	.	.	.	.	.	.	.	.	.	.
8B\J	.	16dd 16d/	.	16ddd\	.	.	.	.	.	.	.	.	.	.	.	.	.	.	.	.
.	.	16dd 16d/	.	16ddd\JJ	.	.	.	.	.	.	.	.	.	.	.	.	.	.	.	.
*Xtremolo	*	*	*	*	*	*	*	*	*	*	*	*	*	*	*	*	*	*	*	*
8A\L	.	16dd 16d/	.	16ff#\LL	.	4A\	-ctem	.	4f#\	-ctem	.	4a\	-ctem	.	4dd\	-ctem	.	.	.	.
.	.	16dd 16d/	.	16ff#\	.	.	.	.	.	.	.	.	.	.	.	.	.	.	.	.
8A\J	.	16dd 16d/	.	16ddd\	.	.	.	.	.	.	.	.	.	.	.	.	.	.	.	.
.	.	16dd 16d/JJ	.	16ddd\JJ	.	.	.	.	.	.	.	.	.	.	.	.	.	.	.	.
=80	=80	=80	=80	=80	=80	=80	=80	=80	=80	=80	=80	=80	=80	=80	=80	=80	=80	=80	=80	=80
!	!	!LO:LB:g=original	!	!	!	!	!	!	!LO:LB:g=original	!	!	!	!	!	!	!	!	!	!	!
*tremolo	*	*	*	*	*	*	*	*	*	*	*	*	*	*	*	*	*	*	*	*
8G\L	.	16b\LL	.	16ee\LL	.	2G\	lux	.	2B\	Lux	.	2g\	Lux	.	2ee\	Lux	.	2.dd\	2.ff#\	.
.	.	16b\	.	16ee\	.	.	.	.	.	.	.	.	.	.	.	.	.	.	.	.
8G\	.	16b\	.	16ddd\	.	.	.	.	.	.	.	.	.	.	.	.	.	.	.	.
.	.	16b\	.	16ddd\JJ	.	.	.	.	.	.	.	.	.	.	.	.	.	.	.	.
*	*	*	*	*rep	*	*	*	*	*	*	*	*	*	*	*	*	*	*	*	*
8G\	.	16b\	.	16ee\LL	.	.	.	.	.	.	.	.	.	.	.	.	.	.	.	.
.	.	16b\	.	16ee\	.	.	.	.	.	.	.	.	.	.	.	.	.	.	.	.
8G\	.	16b\	.	16ddd\	.	.	.	.	.	.	.	.	.	.	.	.	.	.	.	.
.	.	16b\	.	16ddd\JJ	.	.	.	.	.	.	.	.	.	.	.	.	.	.	.	.
*	*	*	*	*Xrep	*	*	*	*	*	*	*	*	*	*	*	*	*	*	*	*
*	*	*	*	*rep	*	*	*	*	*	*	*	*	*	*	*	*	*	*	*	*
8G\	.	16b\	.	16ee\LL	.	4G\	e-	.	4B\	e-	.	4g\	e-	.	4ee\	e-	.	.	.	.
.	.	16b\	.	16ee\	.	.	.	.	.	.	.	.	.	.	.	.	.	.	.	.
8G\J	.	16b\	.	16ddd\	.	.	.	.	.	.	.	.	.	.	.	.	.	.	.	.
.	.	16b\JJ	.	16ddd\JJ	.	.	.	.	.	.	.	.	.	.	.	.	.	.	.	.
*	*	*Xtremolo	*	*Xrep	*	*	*	*	*	*	*	*	*	*	*	*	*	*	*	*
=81	=81	=81	=81	=81	=81	=81	=81	=81	=81	=81	=81	=81	=81	=81	=81	=81	=81	=81	=81	=81
!LO:LB:g=original	!	!	!	!	!	!LO:LB:g=original	!	!	!	!	!	!	!	!	!	!	!	!	!	!
8A\L	.	16cc#\LL	.	16ee\LL	.	2A\	-li-	.	2c#\	-li-	.	2a\	-li-	.	2ee\	-li-	.	2.a/	2.ee\	.
.	.	16cc#\	.	16ee\	.	.	.	.	.	.	.	.	.	.	.	.	.	.	.	.
8A\	.	16ee\	.	16ccc#\	.	.	.	.	.	.	.	.	.	.	.	.	.	.	.	.
.	.	16ee\JJ	.	16ccc#\JJ	.	.	.	.	.	.	.	.	.	.	.	.	.	.	.	.
*	*	*	*	*rep	*	*	*	*	*	*	*	*	*	*	*	*	*	*	*	*
8A\	.	16cc#\LL	.	16ee\LL	.	.	.	.	.	.	.	.	.	.	.	.	.	.	.	.
.	.	16cc#\	.	16ee\	.	.	.	.	.	.	.	.	.	.	.	.	.	.	.	.
8A\	.	16ee\	.	16ccc#\	.	.	.	.	.	.	.	.	.	.	.	.	.	.	.	.
.	.	16ee\JJ	.	16ccc#\JJ	.	.	.	.	.	.	.	.	.	.	.	.	.	.	.	.
*	*	*	*	*Xrep	*	*	*	*	*	*	*	*	*	*	*	*	*	*	*	*
*	*	*	*	*rep	*	*	*	*	*	*	*	*	*	*	*	*	*	*	*	*
8A\	.	16cc#\LL	.	16ee\LL	.	4AA/	-mi-	.	4c#\	-mi-	.	4a\	-mi-	.	4ee\	-mi-	.	.	.	.
.	.	16cc#\	.	16ee\	.	.	.	.	.	.	.	.	.	.	.	.	.	.	.	.
8A\J	.	16ee\	.	16ccc#\	.	.	.	.	.	.	.	.	.	.	.	.	.	.	.	.
.	.	16ee\JJ	.	16ccc#\JJ	.	.	.	.	.	.	.	.	.	.	.	.	.	.	.	.
*Xtremolo	*	*	*	*Xrep	*	*	*	*	*	*	*	*	*	*	*	*	*	*	*	*
=82	=82	=82	=82	=82	=82	=82	=82	=82	=82	=82	=82	=82	=82	=82	=82	=82	=82	=82	=82	=82
!	!	!	!	!	!	!	!	!	!	!	!	!	!	!	!	!	!	!	!LO:LB:g=original	!
*	*	*^	*	*	*	*	*	*	*	*	*	*	*	*	*	*	*	*	*	*
*	*	*tremolo	*tremolo	*	*	*	*	*	*	*	*	*	*	*	*	*	*	*	*	*	*
4D\	.	16a/LL	16f#\LL	.	4ddd 4dd 4d\	.	4D\	-nat.	.	4d\	-nat.	.	4a\	-nat.	.	4ff#\	-nat.	.	4f#/	4dd\	.
.	.	16a/	16f#\	.	.	.	.	.	.	.	.	.	.	.	.	.	.	.	.	.	.
.	.	16a/	16f#\	.	.	.	.	.	.	.	.	.	.	.	.	.	.	.	.	.	.
.	.	16a/	16f#\	.	.	.	.	.	.	.	.	.	.	.	.	.	.	.	.	.	.
4D\	.	16a/	16f#\	.	4ddd 4dd 4d\	.	4r	.	.	4r	.	.	4r	.	.	4r	.	.	4f#/	4dd\	.
.	.	16a/	16f#\	.	.	.	.	.	.	.	.	.	.	.	.	.	.	.	.	.	.
.	.	16a/	16f#\	.	.	.	.	.	.	.	.	.	.	.	.	.	.	.	.	.	.
.	.	16a/	16f#\	.	.	.	.	.	.	.	.	.	.	.	.	.	.	.	.	.	.
4D\	.	16a/	16f#\	.	4ddd 4dd 4d\	.	4r	.	.	4r	.	.	4r	.	.	4r	.	.	4f#/	4dd\	.
.	.	16a/	16f#\	.	.	.	.	.	.	.	.	.	.	.	.	.	.	.	.	.	.
.	.	16a/	16f#\	.	.	.	.	.	.	.	.	.	.	.	.	.	.	.	.	.	.
.	.	16a/JJ	16f#\JJ	.	.	.	.	.	.	.	.	.	.	.	.	.	.	.	.	.	.
*	*	*Xtremolo	*	*	*	*	*	*	*	*	*	*	*	*	*	*	*	*	*	*	*
=83	=83	=83	=83	=83	=83	=83	=83	=83	=83	=83	=83	=83	=83	=83	=83	=83	=83	=83	=83	=83	=83
4D\	.	4a/	4f#\	.	4ddd 4dd 4d\	.	2.r	.	.	2.r	.	.	2.r	.	.	2.r	.	.	4f#/	4dd\	.
4r	.	4r	4ryy	.	4r	.	.	.	.	.	.	.	.	.	.	.	.	.	4r	4r	.
!	!	!	!	!	!	!	!	!	!	!	!	!	!	!	!	!	!	!	!LO:TX:b:t=fine	!	!
4r	.	4r	4ryy	.	4r	.	.	.	.	.	.	.	.	.	.	.	.	.	4r	4r	.
*	*	*v	*v	*	*	*	*	*	*	*	*	*	*	*	*	*	*	*	*	*	*
==	==	==	==	==	==	==	==	==	==	==	==	==	==	==	==	==	==	==	==	==
*-	*-	*-	*-	*-	*-	*-	*-	*-	*-	*-	*-	*-	*-	*-	*-	*-	*-	*-	*-	*-
!!!system-decoration: [g1][g2][g3]
!!!RDF**kern: > = above
!!!RDF**kern: < = below
!!!RDF**dynam: p = "pia."
!!!RDF**dynam: f = "for."
!!!ENC: Marcin Jachim
!!!END: 2020-04-25
!!!ENC: Marta Lawrence
!!!END: 2020-06-30
